Yuxuan-Liang-git/UR5e_Torque/my_ws/config/trajectory/final_exec_160704.csv
timestamp,real_q1,real_q2,real_q3,real_q4,real_q5,real_q6,gripper_cmd
1777277225.0338173,1.2783901691436768,-1.729725023309225,-0.7666805386543274,-1.6917525730528773,1.581761121749878,-0.1268237272845667,0
1777277225.0438192,1.278428554534912,-1.7297097645201625,-0.7666649222373962,-1.6917559109129847,1.581768274307251,-0.12681228319276983,0
1777277225.053816,1.2784215211868286,-1.7297011814513148,-0.7666423916816711,-1.691810747186178,1.581780195236206,-0.12683612505067998,0
1777277225.0638611,1.2784849405288696,-1.7296892605223597,-0.7666338682174683,-1.691918512383932,1.5818028450012207,-0.12689620653261358,0
1777277225.0738468,1.2785422801971436,-1.7297002277769984,-0.7666782140731812,-1.692101617852682,1.5818063020706177,-0.12701970735658819,0
1777277225.0838587,1.278686285018921,-1.7296682796873988,-0.7667489051818848,-1.692305704156393,1.5818111896514893,-0.1271284262286585,0
1777277225.0938518,1.2788923978805542,-1.7295543156065882,-0.7668532133102417,-1.6926647625365199,1.581902265548706,-0.12731868425478154,0
1777277225.103883,1.2791067361831665,-1.7294498882689417,-0.7670711278915405,-1.6930748424925746,1.5819718837738037,-0.12747508684267217,0
1777277225.1139205,1.2792961597442627,-1.729335447350973,-0.7672220468521118,-1.6935297451415003,1.5820320844650269,-0.12761480013002569,0
1777277225.1239061,1.2794842720031738,-1.729262491265768,-0.7673721313476562,-1.6940051517882289,1.582153558731079,-0.12779456773866826,0
1777277225.1338773,1.2796951532363892,-1.7291275463499964,-0.7675554156303406,-1.6945873699583949,1.5822267532348633,-0.1279538313495081,0
1777277225.1439028,1.279862642288208,-1.7290355167784632,-0.7677949666976929,-1.6951223812498988,1.5823142528533936,-0.12806493440736944,0
1777277225.1539083,1.2800031900405884,-1.7289239368834437,-0.7680490612983704,-1.6956731281676234,1.5823971033096313,-0.12811786333192998,0
1777277225.163902,1.2800723314285278,-1.7288958034911097,-0.7682695984840393,-1.6962348423399867,1.582413673400879,-0.12810212770570928,0
1777277225.17392,1.2801634073257446,-1.7288323841490687,-0.7684697508811951,-1.6966992817320765,1.582418441772461,-0.1281216780291956,0
1777277225.1839368,1.280203104019165,-1.7287966213622035,-0.7686938047409058,-1.6971460781493128,1.582450032234192,-0.12806636491884404,0
1777277225.1939285,1.2801995277404785,-1.7288242779173792,-0.7689406871795654,-1.697522302667135,1.58242666721344,-0.12803393999208623,0
1777277225.2039828,1.2802186012268066,-1.7288361988463343,-0.7691047787666321,-1.6978298626341761,1.5824536085128784,-0.12798625627626592,0
1777277225.214065,1.28019118309021,-1.7288404903807582,-0.7692341804504395,-1.6981445751585902,1.5824065208435059,-0.1279223600970667,0
1777277225.2239792,1.2801947593688965,-1.728891988793844,-0.769349217414856,-1.6983005009093226,1.5823816061019897,-0.12788230577577764,0
1777277225.233978,1.280151605606079,-1.728860994378561,-0.7693456411361694,-1.6984521351256312,1.5822904109954834,-0.1278303305255335,0
1777277225.244135,1.2801154851913452,-1.7288881740965785,-0.7692750692367554,-1.6984998188414515,1.5821945667266846,-0.12778216997255498,0
1777277225.2541258,1.2800676822662354,-1.728891988793844,-0.7692497968673706,-1.698465486566061,1.5821106433868408,-0.12776214281191045,0
1777277225.264118,1.2800511121749878,-1.728872915307516,-0.7691179513931274,-1.698484560052389,1.5820200443267822,-0.1276796499835413,0
1777277225.2741497,1.2799789905548096,-1.7289039097227992,-0.7689932584762573,-1.698463579217428,1.5819551944732666,-0.1276186148272913,0
1777277225.2841444,1.2798640727996826,-1.728891988793844,-0.7688532471656799,-1.6984216175475062,1.5818641185760498,-0.12752277055849248,0
1777277225.2941957,1.2797632217407227,-1.728891988793844,-0.7687177658081055,-1.6983777485289515,1.581812858581543,-0.12740737596620733,0
1777277225.304185,1.2796003818511963,-1.7288881740965785,-0.7685908079147339,-1.6984125576415003,1.5817729234695435,-0.12729245821108037,0
1777277225.3142438,1.2794615030288696,-1.728880067864889,-0.7684721350669861,-1.6984087429442347,1.5818272829055786,-0.127207104359762,0
1777277225.32424,1.2793477773666382,-1.728880067864889,-0.7684576511383057,-1.6984011135497035,1.5817992687225342,-0.1271594206439417,0
1777277225.3342347,1.2791848182678223,-1.7288490734496058,-0.7683990001678467,-1.6984011135497035,1.581768274307251,-0.12715465227235967,0
1777277225.3442388,1.2790493965148926,-1.728868146935934,-0.7684146761894226,-1.6984440288939417,1.581768274307251,-0.12713939348329717,0
1777277225.3542595,1.278889775276184,-1.7288562260069789,-0.7683954238891602,-1.6984640560545863,1.5817718505859375,-0.12716657320131475,0
1777277225.3642478,1.2787976264953613,-1.728868146935934,-0.7684421539306641,-1.6984926662840785,1.5817992687225342,-0.12720281282533819,0
1777277225.374272,1.2786585092544556,-1.7288180790343226,-0.7685057520866394,-1.6985842190184535,1.581761121749878,-0.12727100053896123,0
1777277225.384278,1.278542160987854,-1.728860994378561,-0.7685823440551758,-1.6987153492369593,1.581780195236206,-0.1273749510394495,0
1777277225.3942835,1.2784535884857178,-1.728872915307516,-0.7686817646026611,-1.6988359890379847,1.5818076133728027,-0.12744313875307256,0
1777277225.40435,1.2782704830169678,-1.7288762531676234,-0.7687513828277588,-1.6989675960936488,1.581756353378296,-0.12751895586122686,0
1777277225.4143271,1.2781147956848145,-1.7289039097227992,-0.7689214944839478,-1.6991025410094203,1.5817956924438477,-0.12765056291689092,0
1777277225.424433,1.277958869934082,-1.728931566277975,-0.7690304517745972,-1.6992269955077113,1.5817837715148926,-0.12768680254091436,0
1777277225.4343646,1.277732491493225,-1.7289592228331507,-0.7692041397094727,-1.6993986568846644,1.5818064212799072,-0.1277106443988245,0
1777277225.444396,1.2775874137878418,-1.728987833062643,-0.769262969493866,-1.6995417080321253,1.5817956924438477,-0.12768298784364873,0
1777277225.4544148,1.2773250341415405,-1.7290078602232875,-0.7694127559661865,-1.6996737919249476,1.5818076133728027,-0.12767059007753545,0
1777277225.4644194,1.2771799564361572,-1.7290197811522425,-0.7694655656814575,-1.6998135052123011,1.5818272829055786,-0.12765056291689092,0
1777277225.474422,1.2769765853881836,-1.7290402851500453,-0.7694942951202393,-1.699937482873434,1.5818164348602295,-0.12761956850160772,0
1777277225.4844513,1.2767691612243652,-1.729075094262594,-0.7694774866104126,-1.700029035607809,1.581883192062378,-0.1275551954852503,0
1777277225.494486,1.2765655517578125,-1.7290393314757289,-0.7694535255432129,-1.7000819645323695,1.5818967819213867,-0.12751895586122686,0
1777277225.5045333,1.276413083076477,-1.728999753991598,-0.7693073749542236,-1.7001491985716761,1.5819551944732666,-0.1274789015399378,0
1777277225.5145395,1.276221513748169,-1.7289601765074671,-0.7692341804504395,-1.7002016506590785,1.58195161819458,-0.1274626890765589,0
1777277225.5245268,1.2760896682739258,-1.7289077244200648,-0.7690714001655579,-1.7002726993956507,1.5820116996765137,-0.12739879289735967,0
1777277225.5345738,1.2759578227996826,-1.7288252315916957,-0.768950343132019,-1.700320383111471,1.5820307731628418,-0.12734729448427373,0
1777277225.5445578,1.2758417129516602,-1.7287770710387171,-0.7688543796539307,-1.700428148309225,1.581996202468872,-0.12730342546571904,0
1777277225.554555,1.2757339477539062,-1.7287641964354457,-0.7688149809837341,-1.7005239925780238,1.5820116996765137,-0.12725526491274053,0
1777277225.5646312,1.2756068706512451,-1.728748460809225,-0.7687992453575134,-1.700686594048971,1.5820081233978271,-0.12716752687563115,0
1777277225.574619,1.2755144834518433,-1.7287641964354457,-0.7688664197921753,-1.7008148632445277,1.5820201635360718,-0.1270964781390589,0
1777277225.5846157,1.275406837463379,-1.7287966213622035,-0.7689611315727234,-1.700907369653219,1.581996202468872,-0.12697297731508428,0
1777277225.5946038,1.2752940654754639,-1.7289062939085902,-0.7690232396125793,-1.7010852299132289,1.5819873809814453,-0.12684423128236944,0
1777277225.6046598,1.2752101421356201,-1.7290345631041468,-0.7691970467567444,-1.7011429272093714,1.58195161819458,-0.12672454515566045,0
1777277225.6147099,1.2750627994537354,-1.7291470966734828,-0.7693097591400146,-1.7012578449644984,1.5819432735443115,-0.12658435503114873,0
1777277225.6246688,1.2749309539794922,-1.7293344936766566,-0.769454836845398,-1.7013260326781214,1.5818967819213867,-0.1264126936541956,0
1777277225.6346576,1.2747526168823242,-1.7295605144896449,-0.7695890069007874,-1.7013188801207484,1.581926703453064,-0.12624913850893194,0
1777277225.6446762,1.2746195793151855,-1.7298079929747523,-0.769696831703186,-1.7013584576048792,1.5818878412246704,-0.12604171434511358,0
1777277225.6546972,1.2744052410125732,-1.7300945721068324,-0.7699028849601746,-1.7013422451415003,1.5818557739257812,-0.12585384050478154,0
1777277225.6647255,1.2742326259613037,-1.730448385278219,-0.7699292898178101,-1.7013546429076136,1.581820011138916,-0.12565499940981084,0
1777277225.6747484,1.2740373611450195,-1.7307797871031703,-0.7700287103652954,-1.7013312778868617,1.5817956924438477,-0.125495735798971,0
1777277225.6847265,1.273813247680664,-1.7312222919859828,-0.7700718641281128,-1.7013069591917933,1.5817718505859375,-0.12538654008974248,0
1777277225.6947384,1.2735819816589355,-1.7317315540709437,-0.7700539827346802,-1.7012235126891078,1.5817289352416992,-0.1253426710711878,0
1777277225.7047813,1.2733423709869385,-1.7323395214476527,-0.7700443267822266,-1.7011028728880824,1.5816330909729004,-0.12536508241762334,0
1777277225.714787,1.2730357646942139,-1.7330776653685511,-0.7700096368789673,-1.7008997402586878,1.5816164016723633,-0.12535459200014287,0
1777277225.72478,1.2727432250976562,-1.7340132198729457,-0.7700550556182861,-1.7005568943419398,1.5815532207489014,-0.12535459200014287,0
1777277225.7347984,1.272360920906067,-1.7351647816100062,-0.7699617147445679,-1.7000585995116175,1.5815675258636475,-0.1253746191607874,0
1777277225.744802,1.2719296216964722,-1.7366367779173792,-0.7699328660964966,-1.6993347607054652,1.581525206565857,-0.12537080446352178,0
1777277225.754894,1.2714025974273682,-1.7383343182005824,-0.7698813676834106,-1.6984197101988734,1.5815448760986328,-0.12538272539247686,0
1777277225.7648683,1.2708033323287964,-1.7403861484923304,-0.7698574066162109,-1.697235723535055,1.5815377235412598,-0.12538654008974248,0
1777277225.774899,1.270128607749939,-1.7427875004210414,-0.7698285579681396,-1.695672174493307,1.581655740737915,-0.12538654008974248,0
1777277225.7848923,1.2693463563919067,-1.7455393276610316,-0.7697508335113525,-1.6937624416747035,1.581763505935669,-0.1253903547870081,0
1777277225.7949312,1.2684046030044556,-1.7486549816527308,-0.7696861028671265,-1.6915551624693812,1.581934928894043,-0.12539893785585576,0
1777277225.8049366,1.2673861980438232,-1.7521082363524378,-0.7695817947387695,-1.688894887963766,1.5822173357009888,-0.1254027525531214,0
1777277225.8149793,1.266211986541748,-1.755949159661764,-0.7694499492645264,-1.685784479180807,1.582548975944519,-0.12543088594545537,0
1777277225.8249404,1.264898657798767,-1.7600013218321742,-0.7693061828613281,-1.6822463474669398,1.5830788612365723,-0.1255734602557581,0
1777277225.834968,1.2634743452072144,-1.7642981014647425,-0.769181489944458,-1.6784144840636195,1.5836741924285889,-0.1257408300982874,0
1777277225.8449695,1.26195228099823,-1.7686940632262171,-0.7690303921699524,-1.6741687260069789,1.5844560861587524,-0.12602359453310186,0
1777277225.854996,1.260275959968567,-1.7733503780760707,-0.7688713073730469,-1.6694447002806605,1.5854671001434326,-0.1263678709613245,0
1777277225.8650866,1.2585099935531616,-1.7782045803465785,-0.7687274217605591,-1.6643692455687464,1.5866481065750122,-0.12692147890199834,0
1777277225.875033,1.2565302848815918,-1.783328195611471,-0.7685357332229614,-1.65883268932485,1.5879638195037842,-0.12759191194643194,0
1777277225.885029,1.2544804811477661,-1.788675924340719,-0.7683918476104736,-1.6527720890440882,1.5894882678985596,-0.12852508226503545,0
1777277225.8950322,1.2522341012954712,-1.794169088403219,-0.7682840824127197,-1.646407266656393,1.5912193059921265,-0.12971002260317022,0
1777277225.9050636,1.249964952468872,-1.799772401849264,-0.7683523893356323,-1.6399623356261195,1.5932204723358154,-0.13121110597719365,0
1777277225.9151611,1.2475093603134155,-1.805570741693014,-0.7685225009918213,-1.6333066425719203,1.5953381061553955,-0.13305408159364873,0
1777277225.925126,1.244953989982605,-1.8115140400328578,-0.7687609195709229,-1.6263843975462855,1.5976221561431885,-0.1352456251727503,0
1777277225.9352264,1.2422971725463867,-1.8176294765868128,-0.7690075635910034,-1.6191607914366664,1.6001698970794678,-0.13779241243471319,0
1777277225.9451818,1.2395669221878052,-1.8238293133177699,-0.7691766023635864,-1.6117149792113246,1.602891445159912,-0.1407392660724085,0
1777277225.9552095,1.2368253469467163,-1.8299256763853968,-0.7694606781005859,-1.6044508419432582,1.6056721210479736,-0.14424163499941045,0
1777277225.9653053,1.2339231967926025,-1.8360277614989222,-0.7698296904563904,-1.5971552334227503,1.6086409091949463,-0.14814407030214483,0
1777277225.9752493,1.2310513257980347,-1.8421999416747035,-0.7701426148414612,-1.5897213421263636,1.611683964729309,-0.15247661272157842,0
1777277225.9852695,1.2280763387680054,-1.8484345875182093,-0.7704348564147949,-1.5822321377196253,1.6147334575653076,-0.1573579947101038,0
1777277225.995256,1.2251012325286865,-1.8546916447081507,-0.770734429359436,-1.5748425922789515,1.6177905797958374,-0.16265947023500615,0
1777277226.005321,1.2221381664276123,-1.8608881435790003,-0.7710460424423218,-1.567816016762965,1.6209131479263306,-0.16851789156068975,0
1777277226.0153265,1.2191051244735718,-1.8670278988280238,-0.771354079246521,-1.5607395659065624,1.624098300933838,-0.17487937608827764,0
1777277226.025308,1.216083288192749,-1.873265882531637,-0.7716297507286072,-1.5536293511143704,1.6272919178009033,-0.18164569536317998,0
1777277226.0353298,1.2130608558654785,-1.8796092472472132,-0.771814227104187,-1.5467615232667704,1.6304244995117188,-0.18884450594057256,0
1777277226.0453348,1.2099725008010864,-1.885958810845846,-0.7719184160232544,-1.5401955370656033,1.633455753326416,-0.1962345282184046,0
1777277226.0553453,1.2069578170776367,-1.8921333752074183,-0.7720658779144287,-1.5338696663132687,1.636423110961914,-0.20412809053529912,0
1777277226.0654025,1.2038967609405518,-1.898177286187643,-0.7721341848373413,-1.5276280728033562,1.6392453908920288,-0.21226579347719365,0
1777277226.0754144,1.2009128332138062,-1.9041840038695277,-0.772121012210846,-1.5215111349574109,1.6418497562408447,-0.22053653398622686,0
1777277226.0854824,1.1978836059570312,-1.9101621113219203,-0.7719747424125671,-1.5157777082971116,1.6444047689437866,-0.2288578192340296,0
1777277226.0954454,1.19496488571167,-1.916058202783102,-0.7718034386634827,-1.5104382646134873,1.6466437578201294,-0.23746234575380498,0
1777277226.5935423,1.1527212858200073,-2.013393064538473,-0.7509645819664001,-1.4416173559478302,1.6786425113677979,-0.3705204168902796,0
1777277226.6035209,1.1527631282806396,-2.0133844814696253,-0.7509562373161316,-1.4415466499379654,1.6786270141601562,-0.3705051581012171,0
1777277226.6135988,1.1527559757232666,-2.013317724267477,-0.7509910464286804,-1.4415971499732514,1.6786627769470215,-0.37054759660829717,255
1777277226.6235368,1.1527609825134277,-2.013272901574606,-0.7510629296302795,-1.4415849161199112,1.6786627769470215,-0.37059241930116826,255
1777277226.6335616,1.1527609825134277,-2.013137479821676,-0.7511754631996155,-1.4416688543609162,1.6786751747131348,-0.37065250078310186,0
1777277226.6435728,1.1527559757232666,-2.013005872766012,-0.7513745427131653,-1.441800670032837,1.678706169128418,-0.3707998434649866,0
1777277226.6535938,1.1527717113494873,-2.012862821618551,-0.751598596572876,-1.4419482809356232,1.6787078380584717,-0.37095910707582647,0
1777277226.663703,1.1527717113494873,-2.012712141076559,-0.751826286315918,-1.4421748679927369,1.678794264793396,-0.3710997740374964,0
1777277226.6736777,1.152740478515625,-2.0126077137389125,-0.7520214319229126,-1.4424432826093216,1.6788227558135986,-0.3712523619281214,0
1777277226.6836762,1.1527907848358154,-2.0125438175597132,-0.7521929144859314,-1.4428028476289292,1.678863763809204,-0.37147504488100225,0
1777277226.6936662,1.1527955532073975,-2.0125438175597132,-0.752129316329956,-1.4432851535132905,1.6790144443511963,-0.3716943899737757,0
1777277226.7037127,1.1528265476226807,-2.012702604333395,-0.7518921494483948,-1.4438290756991883,1.6791293621063232,-0.3718951384173792,0
1777277226.7137449,1.1528313159942627,-2.012989183465475,-0.7514978647232056,-1.4444319766810914,1.6792222261428833,-0.37214738527406865,0
1777277226.723714,1.1528637409210205,-2.013426443139547,-0.7510496973991394,-1.4451956313899537,1.6793076992034912,-0.37241918245424444,0
1777277226.733744,1.152872085571289,-2.0140911541380824,-0.7503032088279724,-1.446134054367878,1.6794381141662598,-0.3726723829852503,0
1777277226.743755,1.1528875827789307,-2.0149551830687464,-0.7492700219154358,-1.4471362096122284,1.6794993877410889,-0.37296754518617803,0
1777277226.7537682,1.152872085571289,-2.0160609684386195,-0.7479531168937683,-1.448253297512867,1.679674506187439,-0.3732245604144495,0
1777277226.763774,1.1528804302215576,-2.0174390278258265,-0.7463281154632568,-1.4494723168066521,1.6797630786895752,-0.37351972261537725,0
1777277226.7738168,1.1528997421264648,-2.01916040996694,-0.7443603873252869,-1.450842836206295,1.6799380779266357,-0.3738191763507288,0
1777277226.783811,1.152930736541748,-2.021165987054342,-0.7420871257781982,-1.4523288247040291,1.6800940036773682,-0.37409907976259404,0
1777277226.793796,1.1529271602630615,-2.023531576196188,-0.7394172549247742,-1.4538792085698624,1.6802773475646973,-0.37440377870668584,0
1777277226.803841,1.1528961658477783,-2.0261885128416957,-0.7364718914031982,-1.4555882078460236,1.6804261207580566,-0.37463170686830694,0
1777277226.8138063,1.1528911590576172,-2.0292350254454554,-0.7331440448760986,-1.45740548641,1.680609941482544,-0.3749197165118616,0
1777277226.823832,1.1528911590576172,-2.032618661920065,-0.7295528054237366,-1.4592595261386414,1.6808207035064697,-0.3751443068133753,0
1777277226.8338459,1.1528122425079346,-2.0363317928709925,-0.7256558537483215,-1.4610814091614266,1.6810487508773804,-0.3753321806537073,0
1777277226.8438315,1.1527800559997559,-2.0404001675047816,-0.7215550541877747,-1.4630054768970986,1.681291937828064,-0.37554723421205694,0
1777277226.853829,1.1526734828948975,-2.04464115718984,-0.7173131704330444,-1.4649992746165772,1.6815521717071533,-0.3756445089923304,0
1777277226.8638344,1.1526050567626953,-2.0490623913206996,-0.7129797339439392,-1.4669111234000702,1.681843638420105,-0.3757284323321741,0
1777277226.87386,1.1525166034698486,-2.0536653004088343,-0.7083287239074707,-1.4688214522651215,1.6821402311325073,-0.37576419511903936,0
1777277226.8838687,1.1523847579956055,-2.058396955529684,-0.7035733461380005,-1.4706405264190217,1.6825038194656372,-0.37574893632997686,0
1777277226.8938794,1.1522207260131836,-2.063319822350973,-0.6986174583435059,-1.4725533586791535,1.6828877925872803,-0.3757837454425257,0
1777277226.903928,1.1520148515701294,-2.0683800182738246,-0.6934844851493835,-1.4742880326560517,1.6832447052001953,-0.37577659288515264,0
1777277226.91395,1.1518223285675049,-2.07363285640859,-0.6884341835975647,-1.47605715811763,1.6837072372436523,-0.3757842222796839,0
1777277226.924031,1.1515552997589111,-2.078953882256979,-0.6832581162452698,-1.4778953355601807,1.6841936111450195,-0.3758280912982386,0
1777277226.9340227,1.1513036489486694,-2.08437504390859,-0.6781291961669922,-1.4798053962043305,1.6847248077392578,-0.37587243715395147,0
1777277226.9440398,1.1509974002838135,-2.0898972950377406,-0.6729791760444641,-1.4815721747330208,1.6852976083755493,-0.37593251863588506,0
1777277226.9540656,1.1507220268249512,-2.0955687961974085,-0.6677514910697937,-1.4834292095950623,1.685982346534729,-0.3759806791888636,0
1777277226.9640534,1.1503987312316895,-2.1013242206969203,-0.6626824736595154,-1.485041083102562,1.6866408586502075,-0.3760321776019495,0
1777277226.9740856,1.1499488353729248,-2.108206411401266,-0.6565357446670532,-1.4870979574373742,1.6876165866851807,-0.37605220476259404,0
1777277226.9840739,1.149632453918457,-2.1138164005675257,-0.651637613773346,-1.488732823436596,1.6885110139846802,-0.37608033815492803,0
1777277226.99407,1.1493414640426636,-2.1182857952513636,-0.6476687788963318,-1.4900166627815743,1.6892977952957153,-0.3760607878314417,0
1777277227.0041304,1.1488938331604004,-2.1250039539732875,-0.6419215798377991,-1.4917964872768898,1.6905534267425537,-0.37608033815492803,0
1777277227.0140882,1.1484915018081665,-2.1306449375548304,-0.6371638178825378,-1.4931492146900673,1.6917481422424316,-0.37608033815492803,0
1777277227.0240872,1.1480845212936401,-2.136167665521139,-0.6326502561569214,-1.4942907255939026,1.6929349899291992,-0.3760607878314417,0
1777277227.0341136,1.1477205753326416,-2.141471048394674,-0.6283525824546814,-1.4954465267113228,1.6941701173782349,-0.3760884443866175,0
1777277227.0441136,1.1473218202590942,-2.1466685734190882,-0.6241955757141113,-1.4964423713139077,1.6955718994140625,-0.3761556784259241,0
1777277227.0541227,1.1469985246658325,-2.1517516575255335,-0.6203986406326294,-1.4972613465837021,1.6969778537750244,-0.3762124220477503,0
1777277227.0641408,1.1466636657714844,-2.1567889652647914,-0.6166810393333435,-1.4980123427561303,1.6983383893966675,-0.37628394762148076,0
1777277227.074138,1.1463558673858643,-2.1617871723570765,-0.6132411360740662,-1.4985169035247345,1.6998111009597778,-0.37641984621156865,0
1777277227.0841682,1.1460959911346436,-2.1666671238341273,-0.6099902391433716,-1.4988182348063965,1.701298475265503,-0.3765366713153284,0
1777277227.0941908,1.145856261253357,-2.1713162861266078,-0.6070456504821777,-1.4991458368352433,1.7027560472488403,-0.3766558806048792,0
1777277227.1042235,1.1456325054168701,-2.175852438012594,-0.6043736338615417,-1.4993433815291901,1.704208254814148,-0.3767965475665491,0
1777277227.1142259,1.1454219818115234,-2.1801825962462367,-0.6019799709320068,-1.4994398069432755,1.7056742906570435,-0.3769443670855921,0
1777277227.1243415,1.145237684249878,-2.1844197712340296,-0.599929690361023,-1.499392570262291,1.7071404457092285,-0.37710363069643194,0
1777277227.1343079,1.1450474262237549,-2.188500543633932,-0.5980367660522461,-1.4992522907308121,1.7085635662078857,-0.3772476355182093,0
1777277227.1443067,1.1449068784713745,-2.1924430332579554,-0.5964350700378418,-1.4990759503892441,1.7099783420562744,-0.3774002234088343,0
1777277227.1543262,1.144827127456665,-2.196240087548727,-0.5950871706008911,-1.4987766605666657,1.7113169431686401,-0.3774922529803675,0
1777277227.1643584,1.144770622253418,-2.199895044366354,-0.5940832495689392,-1.4985359397581597,1.7126132249832153,-0.3775523344623011,0
1777277227.1743584,1.1447622776031494,-2.2033635578551234,-0.5933955311775208,-1.498271757071354,1.7138994932174683,-0.3775365988360804,0
1777277227.184409,1.1447827816009521,-2.206722398797506,-0.5929839015007019,-1.4979080569795151,1.7151618003845215,-0.37747365633119756,0
1777277227.1944406,1.1448498964309692,-2.209926744500631,-0.5928624868392944,-1.4974169966629525,1.716348648071289,-0.3773444334613245,0
1777277227.2044923,1.144941806793213,-2.212907453576559,-0.5929655432701111,-1.496876673107483,1.717560052871704,-0.37720042863954717,0
1777277227.2144759,1.1451133489608765,-2.2157656155028285,-0.593331515789032,-1.4962923687747498,1.718714714050293,-0.3769620100604456,0
1777277227.2244709,1.1452734470367432,-2.2185241184630335,-0.5937952399253845,-1.4956127864173432,1.719797968864441,-0.37669355074037725,0
1777277227.2344837,1.145496129989624,-2.221152444879049,-0.5944681167602539,-1.494924196307995,1.7208138704299927,-0.3763487974749964,0
1777277227.2445173,1.1457358598709106,-2.2237407169737757,-0.5951817631721497,-1.4941641849330445,1.721784234046936,-0.3758938948260706,0
1777277227.2545288,1.146023154258728,-2.2263699970641078,-0.5960793495178223,-1.4935080495527764,1.7227627038955688,-0.37538272539247686,0
1777277227.2645533,1.146327018737793,-2.2289301357665003,-0.5971676707267761,-1.4928478759578248,1.7235755920410156,-0.37484628358949834,0
1777277227.2745583,1.1467018127441406,-2.2314311466612757,-0.5982362031936646,-1.4921237987330933,1.7244155406951904,-0.3742583433734339,0
1777277227.2845392,1.147159218788147,-2.233913560906881,-0.5994247198104858,-1.4913869959167023,1.725193977355957,-0.3736031691180628,0
1777277227.294623,1.1476105451583862,-2.236251493493551,-0.6006281971931458,-1.490599350338318,1.725914716720581,-0.3729465643512171,0
1777277227.3047109,1.1480895280838013,-2.2385412655272425,-0.601802408695221,-1.4898003426245232,1.7266172170639038,-0.37225467363466436,0
1777277227.3146343,1.148667335510254,-2.2407623730101527,-0.602911114692688,-1.4889248323491593,1.7272765636444092,-0.3715289274798792,0
1777277227.3246663,1.1492469310760498,-2.2429563007750453,-0.6039726734161377,-1.4880809348872681,1.7278796434402466,-0.3708089033709925,0
1777277227.3346443,1.14987313747406,-2.2450934849181117,-0.6050732135772705,-1.4872179490378876,1.7284075021743774,-0.37010366121401006,0
1777277227.3446708,1.1505507230758667,-2.247329374352926,-0.6060299873352051,-1.486347184782364,1.7287967205047607,-0.3693636099444788,0
1777277227.354683,1.151244878768921,-2.249535699883932,-0.6070467829704285,-1.4854877230576058,1.7292509078979492,-0.3686760107623499,0
1777277227.3647013,1.151963233947754,-2.2518636188902796,-0.6079623103141785,-1.4847316306880494,1.7295799255371094,-0.3680070082293909,0
1777277227.3747134,1.1527177095413208,-2.2542196712889613,-0.6088266372680664,-1.4839141976884385,1.7298948764801025,-0.3673952261554163,0
1777277227.384708,1.1535189151763916,-2.2566195927061976,-0.6097630858421326,-1.4831311714700242,1.7301204204559326,-0.3667834440814417,0
1777277227.3947084,1.1543086767196655,-2.2590438328185023,-0.6105350255966187,-1.4824146416834374,1.7304705381393433,-0.366246525441305,0
1777277227.4047668,1.1551038026809692,-2.2613893947997035,-0.6112349629402161,-1.48165566593919,1.7307074069976807,-0.36573583284486944,0
1777277227.414725,1.1559104919433594,-2.2637578449644984,-0.6119195818901062,-1.480849177842476,1.7309036254882812,-0.36529857317079717,0
1777277227.4247394,1.1567283868789673,-2.2659832439818324,-0.6126248836517334,-1.4800541412881394,1.731126308441162,-0.36488181749452764,0
1777277227.43473,1.157530426979065,-2.2681647739806117,-0.6132558584213257,-1.479234629576542,1.731290578842163,-0.3645136992083948,0
1777277227.4447591,1.1583192348480225,-2.2702771625914515,-0.6137731671333313,-1.4783402246287842,1.7315168380737305,-0.3641775290118616,0
1777277227.4547622,1.159031629562378,-2.2723809681334437,-0.6143192648887634,-1.4773968395641823,1.7316691875457764,-0.36387712160219365,0
1777277227.4647667,1.1597813367843628,-2.274440904656881,-0.6147950291633606,-1.4763781365803261,1.7318060398101807,-0.36360150972475225,0
1777277227.4747865,1.1603963375091553,-2.276536603967184,-0.6152846217155457,-1.47526070595298,1.7319531440734863,-0.36334067979921514,0
1777277227.4847987,1.161022424697876,-2.2786880932249964,-0.6156781315803528,-1.4741733607700844,1.7320195436477661,-0.3630612532245081,0
1777277227.4948099,1.161555528640747,-2.28090300182485,-0.6160995960235596,-1.4729268488338967,1.732166051864624,-0.36279327074159795,0
1777277227.5048552,1.1620569229125977,-2.2831536732115687,-0.616504967212677,-1.4716563162258645,1.7322381734848022,-0.3625605742083948,0
1777277227.5148103,1.1624675989151,-2.285520692864889,-0.6169706583023071,-1.4702265125564118,1.73227858543396,-0.36225682893861944,0
1777277227.5248356,1.16282320022583,-2.287933965722555,-0.6173568964004517,-1.4687600147775193,1.7323805093765259,-0.36200029054750615,0
1777277227.5349586,1.163110613822937,-2.2903500996031703,-0.6179001331329346,-1.467114434843399,1.732393503189087,-0.36164981523622686,0
1777277227.5448525,1.1633380651474,-2.2927519283690394,-0.6183844804763794,-1.4654767376235505,1.732442855834961,-0.36132604280580694,0
1777277227.554868,1.1635023355484009,-2.2951938114561976,-0.6189544796943665,-1.463525341158249,1.7325804233551025,-0.36099321046938115,0
1777277227.5649223,1.163602590560913,-2.2975570164122523,-0.6195175647735596,-1.4615675669959565,1.7326898574829102,-0.3606370131122034,0
1777277227.5749137,1.1636433601379395,-2.2998844585814417,-0.6201046109199524,-1.4594540831497689,1.7328059673309326,-0.3602340857135218,0
1777277227.5849254,1.1636422872543335,-2.3021518192686976,-0.620751678943634,-1.4572120991400261,1.7329965829849243,-0.35986501375307256,0
1777277227.5949316,1.1636145114898682,-2.304403921166891,-0.6214175224304199,-1.4548227575472374,1.7331762313842773,-0.3594854513751429,0
1777277227.6049693,1.1635233163833618,-2.306669851342672,-0.6220763325691223,-1.4523417440107842,1.7333970069885254,-0.3591097036944788,0
1777277227.6149807,1.1634314060211182,-2.308890005151266,-0.6227952837944031,-1.4497971025160332,1.7336642742156982,-0.3587687651263636,0
1777277227.624952,1.1632912158966064,-2.31115259746694,-0.6235107183456421,-1.4471712571433564,1.7339988946914673,-0.3584049383746546,0
1777277227.634992,1.163119912147522,-2.3134433231749476,-0.624301552772522,-1.4445316356471558,1.734354853630066,-0.3580845038043421,0
1777277227.6450045,1.1629403829574585,-2.3156897030272425,-0.6250733137130737,-1.4418462377837677,1.7347350120544434,-0.35780126253236944,0
1777277227.655008,1.162752628326416,-2.3179451427855433,-0.62582927942276,-1.439231277709343,1.7351975440979004,-0.3575647513019007,0
1777277227.9354877,1.1617743968963623,-2.3294202289977015,-0.6292480826377869,-1.4250648778728028,1.7377848625183105,-0.35657960573305303,0
1777277227.9454613,1.1617398262023926,-2.3294388256468714,-0.6291998028755188,-1.4250685435584565,1.737793207168579,-0.3565638701068323,0
1777277227.9554527,1.1617779731750488,-2.329399724999899,-0.6291913986206055,-1.4250732225230713,1.7378158569335938,-0.3565762678729456,255
1777277227.965521,1.1617708206176758,-2.329372068444723,-0.6291897296905518,-1.4251679343036194,1.7378522157669067,-0.35658532777895147,255
1777277227.975496,1.1617553234100342,-2.3293520412840785,-0.6292566061019897,-1.4253438872149964,1.7378568649291992,-0.3565886656390589,0
1777277227.9855049,1.161743402481079,-2.3293520412840785,-0.6292582750320435,-1.4256349813989182,1.7379372119903564,-0.3566363493548792,0
1777277227.9955354,1.1617708206176758,-2.3293634853758753,-0.6293898820877075,-1.426073433165886,1.7380123138427734,-0.3566964308368128,0
1777277228.0055218,1.1617398262023926,-2.3293916187682093,-0.6296039819717407,-1.4266077441028138,1.738105058670044,-0.35678416887392217,0
1777277228.0155134,1.1617794036865234,-2.329399724999899,-0.6298195719718933,-1.4271587145379563,1.7382009029388428,-0.356851879750387,0
1777277228.0255566,1.1618223190307617,-2.3294149837889613,-0.6300952434539795,-1.427749903207161,1.738340139389038,-0.35696441331972295,0
1777277228.035554,1.161858320236206,-2.3293963871397914,-0.6303657293319702,-1.4283384692719956,1.73847234249115,-0.35706836382021123,0
1777277228.0455542,1.1619060039520264,-2.3293634853758753,-0.6306464672088623,-1.428893507724144,1.7385644912719727,-0.35715943971742803,0
1777277228.0556793,1.1619539260864258,-2.329355855981344,-0.6309338808059692,-1.4294245702079316,1.738746166229248,-0.35725194612611944,0
1777277228.065636,1.1620018482208252,-2.3293281994261683,-0.6313087344169617,-1.4299090814641495,1.7388830184936523,-0.3573239485370081,0
1777277228.0757391,1.1620140075683594,-2.3293281994261683,-0.6316682696342468,-1.4303726565888901,1.7390234470367432,-0.35744029680360967,0
1777277228.0857122,1.162022352218628,-2.3293191395201625,-0.6320276856422424,-1.4307801586440583,1.7391550540924072,-0.3575862089740198,0
1777277228.0957289,1.1620378494262695,-2.3293706379332484,-0.6323906183242798,-1.43106064320121,1.7392990589141846,-0.35762006441225225,0
1777277228.1058562,1.1620450019836426,-2.329423566857809,-0.6327570676803589,-1.4313362550786515,1.7394580841064453,-0.35774404207338506,0
1777277228.1157947,1.161982774734497,-2.3294745884337367,-0.6330100893974304,-1.4315639299205323,1.7395834922790527,-0.35786420503725225,0
1777277228.1258278,1.1619744300842285,-2.329606672326559,-0.6332035064697266,-1.431652845149376,1.7397657632827759,-0.35798389116396123,0
1777277228.135829,1.161914348602295,-2.329773088494772,-0.6333625912666321,-1.431704358463623,1.7398626804351807,-0.3581050078021448,0
1777277228.145822,1.161794900894165,-2.329949518243307,-0.6335013508796692,-1.4317007523826142,1.7399870157241821,-0.3582842985736292,0
1777277228.1558247,1.1616820096969604,-2.330161233941549,-0.6334755420684814,-1.4316885632327576,1.7401227951049805,-0.3584244886981409,0
1777277228.165835,1.1615242958068848,-2.330416818658346,-0.6334823966026306,-1.4316719633391877,1.740250825881958,-0.35856324831117803,0
1777277228.175864,1.1613807678222656,-2.330677171746725,-0.6334191560745239,-1.4315567028573533,1.7403984069824219,-0.35868817964662725,0
1777277228.1858501,1.161208152770996,-2.3309885464110316,-0.6333248615264893,-1.4314969044974823,1.7405145168304443,-0.3587687651263636,0
1777277228.195843,1.161025047302246,-2.3313361606993617,-0.6333028078079224,-1.4313769352487107,1.7406859397888184,-0.3588321844684046,0
1777277228.2058632,1.1608455181121826,-2.3317352734007777,-0.6331999897956848,-1.4312020999244233,1.7408816814422607,-0.3588679472552698,0
1777277228.215888,1.1606504917144775,-2.332182546655172,-0.6331127882003784,-1.4310174000314255,1.7410149574279785,-0.3589237372027796,0
1777277228.2258902,1.1604623794555664,-2.332665582696432,-0.6330323815345764,-1.4307584476521988,1.7412328720092773,-0.3589366118060511,0
1777277228.2358818,1.160306692123413,-2.3332253895201625,-0.6329963207244873,-1.430451513533928,1.7414054870605469,-0.3590005079852503,0
1777277228.2461064,1.1601474285125732,-2.3338762722411097,-0.6329861283302307,-1.4300790590098877,1.7416198253631592,-0.3590481917010706,0
1777277228.255933,1.160062313079834,-2.334583898583883,-0.6329553127288818,-1.4295646709254761,1.741753101348877,-0.3591721693622034,0
1777277228.2659855,1.1599512100219727,-2.3353988132872523,-0.6329278945922852,-1.4289773565581818,1.7419519424438477,-0.3593233267413538,0
1777277228.2759802,1.1598756313323975,-2.3363400898375453,-0.6329552531242371,-1.4283179950765152,1.7420960664749146,-0.3594873587237757,0
1777277228.2859905,1.1599104404449463,-2.337264200250143,-0.6328799724578857,-1.4275712382844468,1.7422327995300293,-0.3596552054034632,0
1777277228.29599,1.1599392890930176,-2.338329931298727,-0.6328165531158447,-1.4267008167556305,1.7423923015594482,-0.3598993460284632,0
1777277228.30602,1.1600064039230347,-2.339468618432516,-0.6327242851257324,-1.4257559490254899,1.7425000667572021,-0.3602183500873011,0
1777277228.3160186,1.1601415872573853,-2.3406554661192835,-0.6325736045837402,-1.4247926634601136,1.7426369190216064,-0.36053163210024053,0
1777277228.326016,1.1602897644042969,-2.3419023952879847,-0.6323578953742981,-1.4237467509559174,1.7427756786346436,-0.36093408266176397,0
1777277228.3360424,1.1604766845703125,-2.3432003460326136,-0.6321423649787903,-1.422687829737999,1.7428643703460693,-0.3613780180560511,0
1777277228.34605,1.1606767177581787,-2.3445517025389613,-0.63182532787323,-1.4215629410794755,1.7429399490356445,-0.36184961000551397,0
1777277228.3561196,1.160895824432373,-2.3459817371764125,-0.6316150426864624,-1.4204246562770386,1.7429845333099365,-0.36231881776918584,0
1777277228.3661156,1.161171317100525,-2.3477679691710414,-0.6313258409500122,-1.4190901231816788,1.7430119514465332,-0.3629067579852503,0
1777277228.376119,1.161374568939209,-2.3492866955199183,-0.6310862302780151,-1.417908863430359,1.7429964542388916,-0.36337501207460576,0
1777277228.3861263,1.1615540981292725,-2.3505803547301234,-0.6308910846710205,-1.4169551891139527,1.7430119514465332,-0.36373883882631475,0
1777277228.3961668,1.1618618965148926,-2.352589269677633,-0.6306275129318237,-1.4155680698207398,1.74298095703125,-0.36419850984682256,0
1777277228.4062061,1.1621170043945312,-2.354191919366354,-0.6304134130477905,-1.4143820416978379,1.7429828643798828,-0.3644946257220667,0
1777277228.4161959,1.1623969078063965,-2.3558222256102503,-0.6302732825279236,-1.4131600570729752,1.7429399490356445,-0.3647363821612757,0
1777277228.4262228,1.1627360582351685,-2.3574444256224574,-0.6301208734512329,-1.411949799661972,1.7428851127624512,-0.3649352232562464,0
1777277228.4362113,1.1630853414535522,-2.359018941918844,-0.6300045251846313,-1.4107673925212403,1.7428959608078003,-0.36511022249330694,0
1777277228.446276,1.1633895635604858,-2.3605572185912074,-0.6298657655715942,-1.409602091913559,1.7428560256958008,-0.36517459550966436,0
1777277228.456395,1.1637283563613892,-2.3620244465269984,-0.6297459602355957,-1.4084478479674836,1.7428631782531738,-0.3651679197894495,0
1777277228.4663358,1.1640602350234985,-2.3634478054442347,-0.6296451091766357,-1.4073337030461808,1.7428441047668457,-0.3651531378375452,0
1777277228.4763668,1.1643954515457153,-2.3648692570128382,-0.6295115351676941,-1.4062556785396119,1.7428715229034424,-0.36515647569765264,0
1777277228.4864635,1.1647428274154663,-2.366204877892965,-0.629326581954956,-1.40520395458255,1.7428405284881592,-0.36515981355776006,0
1777277228.4964263,1.1650949716567993,-2.367571016351217,-0.629153847694397,-1.4040842962316056,1.742875099182129,-0.3651326338397425,0
1777277228.506533,1.1654812097549438,-2.368925233880514,-0.6290065050125122,-1.4030649226954957,1.742887020111084,-0.3651168982135218,0
1777277228.5164754,1.1659163236618042,-2.37029566387319,-0.6288747787475586,-1.4019742023995896,1.7428761720657349,-0.3651326338397425,0
1777277228.5264816,1.1663750410079956,-2.3716589413084925,-0.6287754774093628,-1.4008534860662003,1.7428606748580933,-0.3651202360736292,0
1777277228.5364947,1.1668542623519897,-2.3730765781798304,-0.6286522150039673,-1.3996945780566712,1.7428922653198242,-0.3651235739337366,0
1777277228.5464911,1.1673845052719116,-2.374510427514547,-0.6286506652832031,-1.3984962713769455,1.7428922653198242,-0.3651016394244593,0
1777277228.5565283,1.167974829673767,-2.375929971734518,-0.6286146640777588,-1.3972516071847458,1.7429041862487793,-0.3651168982135218,0
1777277228.5665324,1.1685856580734253,-2.3773771725096644,-0.6285443305969238,-1.3959731322577973,1.742919683456421,-0.36512929597963506,0
1777277228.576541,1.1692408323287964,-2.3788510761656703,-0.6285222768783569,-1.39457260191951,1.7429077625274658,-0.3651474157916468,0
1777277228.5865374,1.1700023412704468,-2.380341192285055,-0.6283800601959229,-1.3932330024293442,1.7429351806640625,-0.36514407793153936,0
1777277228.5965776,1.1707450151443481,-2.381815572778219,-0.6283100843429565,-1.3917726290277024,1.742919683456421,-0.3651645819293421,0
1777277228.6065543,1.1715282201766968,-2.383278032342428,-0.628097653388977,-1.3902920198491593,1.742919683456421,-0.36521655717958623,0
1777277228.6165688,1.1723699569702148,-2.384768625298971,-0.6279675960540771,-1.3887790602496644,1.7428922653198242,-0.3652914206134241,0
1777277228.6265836,1.1732598543167114,-2.386179109612936,-0.6277691125869751,-1.3872635078481217,1.7428959608078003,-0.36537200609316045,0
1777277228.6366136,1.174102783203125,-2.387621065179342,-0.627616822719574,-1.3856553000262757,1.7428524494171143,-0.3655045668231409,0
1777277228.6465926,1.1749809980392456,-2.3889929256834925,-0.6274574995040894,-1.3840973687222977,1.742828607559204,-0.3656552473651331,0
1777277228.6566184,1.1758586168289185,-2.390362402001852,-0.6272435188293457,-1.3824283641627808,1.742772102355957,-0.36576873460878545,0
1777277228.666601,1.176686406135559,-2.3917204342284144,-0.6271460056304932,-1.3807078909925004,1.7426964044570923,-0.3659399191485804,0
1777277228.676663,1.1775243282318115,-2.393036504785055,-0.6270296573638916,-1.378998414879181,1.7425422668457031,-0.36609203020204717,0
1777277228.6866822,1.1783736944198608,-2.3943358860411585,-0.626916766166687,-1.3772610288909455,1.7424535751342773,-0.3663061300860804,0
1777277228.6966949,1.1791844367980957,-2.395581384698385,-0.6267626881599426,-1.3754050147584458,1.7423021793365479,-0.36647111574281865,0
1777277228.7067099,1.1800212860107422,-2.3969327412047328,-0.6266805529594421,-1.3736356657794495,1.742177963256836,-0.3666322867022913,0
1777277228.716712,1.1808011531829834,-2.3982283077635707,-0.6264750361442566,-1.371787117128708,1.7420680522918701,-0.36679155031313115,0
1777277228.7267158,1.1816191673278809,-2.399583955804342,-0.6263229250907898,-1.3699581188014527,1.7418774366378784,-0.3669083754168909,0
1777277228.7367637,1.1824434995651245,-2.4009276829161585,-0.6261397004127502,-1.36811317623172,1.7416976690292358,-0.36699229875673467,0
1777277228.7467694,1.1832085847854614,-2.4023624859251917,-0.6259804368019104,-1.3662718844464798,1.7415059804916382,-0.36700469652284795,0
1777277228.7567496,1.1840721368789673,-2.4037863216795863,-0.6257922053337097,-1.3644227099469681,1.7412834167480469,-0.36701947847475225,0
1777277228.7667499,1.1848472356796265,-2.405254980126852,-0.6255816221237183,-1.3625969749740143,1.7411417961120605,-0.36699229875673467,0
1777277228.7767725,1.1856476068496704,-2.4067656002440394,-0.6254223585128784,-1.360804022555687,1.7409226894378662,-0.36695605913271123,0
1777277228.7867908,1.186437964439392,-2.408241411248678,-0.625300943851471,-1.3589603167823334,1.7407341003417969,-0.3668931166278284,0
1777277228.7967887,1.1872320175170898,-2.409745832482809,-0.6252222061157227,-1.3571942013553162,1.7405072450637817,-0.3668330351458948,0
1777277228.8068035,1.1879948377609253,-2.4113174877562464,-0.6251229643821716,-1.3554173123887558,1.740307331085205,-0.3667643705951136,0
1777277228.8167932,1.1887531280517578,-2.4128409824767054,-0.6251024603843689,-1.353744001393654,1.7400846481323242,-0.36664086977113897,0
1777277228.8268151,1.1894991397857666,-2.414391180078024,-0.6250921487808228,-1.352137253885605,1.7398995161056519,-0.36654836336244756,0
1777277228.8368497,1.1902332305908203,-2.4158956013121546,-0.6251109838485718,-1.350488857632019,1.7396721839904785,-0.3663890997516077,0
1777277228.8468451,1.190913438796997,-2.4173833332457484,-0.6251623034477234,-1.348884404902794,1.739428162574768,-0.3662021795855921,0
1777277228.856844,1.1916356086730957,-2.4187990627684535,-0.6252034902572632,-1.3473977160504838,1.7392628192901611,-0.36601001421083623,0
1777277228.8668437,1.192330002784729,-2.420182844201559,-0.6252667307853699,-1.3459243190339585,1.7390127182006836,-0.36578208604921514,0
1777277228.876855,1.1929852962493896,-2.421523233453268,-0.6253557205200195,-1.3444973093322297,1.7388074398040771,-0.36550933519472295,0
1777277228.8868618,1.1936250925064087,-2.4228035412230433,-0.6254858374595642,-1.3430837851813813,1.7385293245315552,-0.36522180238832647,0
1777277228.8968732,1.1942826509475708,-2.4240786037840785,-0.6255834102630615,-1.3416997504285355,1.7383174896240234,-0.3648784796344202,0
1777277228.9068937,1.1948622465133667,-2.42527498821401,-0.6256911754608154,-1.3403256100467225,1.738073468208313,-0.3645542303668421,0
1777277228.916908,1.1954331398010254,-2.426462312737936,-0.6258145570755005,-1.338940591817238,1.7378222942352295,-0.3641708532916468,0
1777277228.9269586,1.1959916353225708,-2.427645822564596,-0.6259720325469971,-1.337562308912613,1.73760986328125,-0.36379844347109014,0
1777277228.9369838,1.196511149406433,-2.428774496118063,-0.6260865926742554,-1.33622661352668,1.7374098300933838,-0.3634265104876917,0
1777277228.9469833,1.1970213651657104,-2.4299174747862757,-0.6263245940208435,-1.3348307770541687,1.7371470928192139,-0.3630459944354456,0
1777277228.9570105,1.1974689960479736,-2.4310251675047816,-0.6264904737472534,-1.3334478747895737,1.7369277477264404,-0.3626897970782679,0
1777277228.9669912,1.1978849172592163,-2.4320856533446253,-0.6268193125724792,-1.3320714098266144,1.7367432117462158,-0.36236602464784795,0
1777277228.9770176,1.198323130607605,-2.4330502949156703,-0.6271462440490723,-1.3307401847890397,1.7365152835845947,-0.36210519472231084,0
1777277228.9870148,1.198722004890442,-2.4340135059752406,-0.6274816989898682,-1.3294188541224976,1.7362914085388184,-0.3618100325213831,0
1777277228.9970193,1.1990622282028198,-2.434885164300436,-0.6278769373893738,-1.3281599146178742,1.7360599040985107,-0.36163360277284795,0
1777277229.2276988,1.199873924255371,-2.4367715320982875,-0.6290220022201538,-1.3251012128642579,1.7353546619415283,-0.36131126085390264,0
1777277229.237675,1.199862003326416,-2.4367715320982875,-0.628999650478363,-1.3251012128642579,1.7353665828704834,-0.36128026643861944,0
1777277229.2476935,1.1998775005340576,-2.4366923771300257,-0.6289721131324768,-1.3250975471786042,1.7353510856628418,-0.3612616697894495,0
1777277229.2576993,1.1998908519744873,-2.4366795025267542,-0.6290375590324402,-1.3251970571330567,1.7353236675262451,-0.3611844221698206,255
1777277229.2677023,1.1999733448028564,-2.4366117916502894,-0.6291077136993408,-1.3254394692233582,1.7352992296218872,-0.3609698454486292,0
1777277229.2777328,1.2001123428344727,-2.4365717373290003,-0.6291383504867554,-1.325711191897728,1.7352910041809082,-0.36082250276674444,0
1777277229.287737,1.2002681493759155,-2.436500688592428,-0.6292976140975952,-1.3261738878539582,1.73527193069458,-0.360725227986471,0
1777277229.2977383,1.2004356384277344,-2.4364835224547328,-0.6294327974319458,-1.3266576987556,1.7352945804595947,-0.3605855146991175,0
1777277229.3077824,1.2006511688232422,-2.4364596805968226,-0.6295680999755859,-1.3271846187165757,1.7352755069732666,-0.36047298112978154,0
1777277229.317773,1.2008309364318848,-2.436399599114889,-0.6297135353088379,-1.3277751070312043,1.7353225946426392,-0.36034995714296514,0
1777277229.3277774,1.2010022401809692,-2.4362880192198695,-0.6298521757125854,-1.3284212064794083,1.7353190183639526,-0.36029321352113897,0
1777277229.3378212,1.2011016607284546,-2.4361959896483363,-0.6299804449081421,-1.3289134067348023,1.7353153228759766,-0.3602965513812464,0
1777277229.3478265,1.2010560035705566,-2.4360996685423792,-0.6300986409187317,-1.3294754785350342,1.7353355884552002,-0.3602808157550257,0
1777277229.3578396,1.2010080814361572,-2.4360276661314906,-0.6301448345184326,-1.3299632680467148,1.7353992462158203,-0.3603442350970667,0
1777277229.3678293,1.2009434700012207,-2.435971876183981,-0.6302322149276733,-1.330434964304306,1.735419511795044,-0.36040956178774053,0
1777277229.3778725,1.2008476257324219,-2.4359127483763636,-0.6302835941314697,-1.330882878308632,1.7355225086212158,-0.36057883897890264,0
1777277229.3878949,1.200727939605713,-2.4359475574889125,-0.6303588151931763,-1.3312820953181763,1.7356064319610596,-0.3606990019427698,0
1777277229.3979223,1.200575590133667,-2.435955663720602,-0.6303963661193848,-1.331713394527771,1.7356832027435303,-0.3607433477984827,0
1777277229.4079792,1.2004443407058716,-2.435968061486715,-0.6304563283920288,-1.3321244281581421,1.735805869102478,-0.3609116713153284,0
1777277229.4179902,1.2002811431884766,-2.436007638970846,-0.6304922103881836,-1.3324524027160187,1.7358825206756592,-0.36101085344423467,0
1777277229.4279757,1.200161099433899,-2.4360276661314906,-0.63054358959198,-1.3328119230321427,1.735922932624817,-0.3611791769610804,0
1777277229.4380352,1.2000175714492798,-2.43603577236318,-0.6305282115936279,-1.3331424754909058,1.735990285873413,-0.3612716833697718,0
1777277229.4479985,1.199870228767395,-2.436075826684469,-0.6305675506591797,-1.3334504973939438,1.7360032796859741,-0.3614314238177698,0
1777277229.4580164,1.199738621711731,-2.436075826684469,-0.6305640935897827,-1.3336864721826096,1.736086130142212,-0.3616145292865198,0
1777277229.468019,1.1996309757232666,-2.4360600910582484,-0.6305556297302246,-1.3338588041118165,1.7360670566558838,-0.36180001894106084,0
1777277229.4780316,1.1994785070419312,-2.4360720119872035,-0.630524754524231,-1.333958552484848,1.736090898513794,-0.3620827833758753,0
1777277229.4880614,1.199371099472046,-2.4360996685423792,-0.630524754524231,-1.3339822900346299,1.7361135482788086,-0.3624184767352503,0
1777277229.4980643,1.1992824077606201,-2.4360958538451136,-0.6305265426635742,-1.3339152944139023,1.7360825538635254,-0.3627823034869593,0
1777277229.5081048,1.1990957260131836,-2.436119695703024,-0.6304922103881836,-1.3337629598430176,1.7360825538635254,-0.3633378187762659,0
1777277229.5180993,1.1989840269088745,-2.4361754856505335,-0.6304888129234314,-1.333667353992798,1.7361016273498535,-0.36370641389955694,0
1777277229.5280943,1.1988680362701416,-2.4362436733641566,-0.63054358959198,-1.3335513335517426,1.735999584197998,-0.36418229738344365,0
1777277229.5381346,1.1987086534500122,-2.4364153347411097,-0.6306583881378174,-1.3333643239787598,1.7359628677368164,-0.36475879350771123,0
1777277229.5481236,1.1985458135604858,-2.4366146526732386,-0.6308535933494568,-1.333264560704567,1.7358872890472412,-0.36521798769106084,0
1777277229.5581508,1.1984968185424805,-2.4367667637267054,-0.6309680938720703,-1.333223895435669,1.73580801486969,-0.36551124254335576,0
1777277229.5681293,1.1983628273010254,-2.437042852441305,-0.6313157081604004,-1.3332551729730149,1.7357831001281738,-0.36585933366884404,0
1777277229.578162,1.1982967853546143,-2.4374505482115687,-0.6316323280334473,-1.3332202744534989,1.7356832027435303,-0.36617833772768194,0
1777277229.5881712,1.1982643604278564,-2.4377786121764125,-0.6318495273590088,-1.3332397055676957,1.7356505393981934,-0.36628801027406865,0
1777277229.5981781,1.198209285736084,-2.43829407314443,-0.6322193741798401,-1.3332515370896836,1.7356040477752686,-0.3663833777057093,0
1777277229.608197,1.1981818675994873,-2.438789506951803,-0.6324434876441956,-1.3332634580186387,1.7356302738189697,-0.3663376013385218,0
1777277229.6182206,1.1981925964355469,-2.439329286614889,-0.6326558589935303,-1.333247960810997,1.7355992794036865,-0.36621410051454717,0
1777277229.6282089,1.1982210874557495,-2.439813276330465,-0.6327944397926331,-1.333223895435669,1.7356195449829102,-0.3661130110370081,0
1777277229.6382504,1.1982369422912598,-2.440517087975973,-0.632859468460083,-1.333116130237915,1.7356748580932617,-0.3659017721759241,0
1777277229.6482341,1.198267936706543,-2.4411570034422816,-0.6328799724578857,-1.3329496693662186,1.7357261180877686,-0.3657015005694788,0
1777277229.6582491,1.1982955932617188,-2.4418446026244105,-0.6328355073928833,-1.3328083467534562,1.735802173614502,-0.36546498933901006,0
1777277229.6682503,1.198272705078125,-2.4425164661803187,-0.6327875852584839,-1.3326058846763154,1.7358390092849731,-0.36517364183534795,0
1777277229.678255,1.19826078414917,-2.4432083568968714,-0.6326900124549866,-1.3324332994273682,1.7359607219696045,-0.36488563219179326,0
1777277229.6882539,1.19826078414917,-2.443928381005758,-0.6326882839202881,-1.3322022569230576,1.7359592914581299,-0.3645857016192835,0
1777277229.698276,1.1982762813568115,-2.4447223148741664,-0.6326044797897339,-1.3319623184255143,1.7360503673553467,-0.36424571672548467,0
1777277229.7083507,1.1982643604278564,-2.445519109765524,-0.6325565576553345,-1.3316676181605835,1.7360789775848389,-0.363901440297262,0
1777277229.7183561,1.1982452869415283,-2.4463755093016566,-0.6325085163116455,-1.3314041805318375,1.736142635345459,-0.36349374452699834,0
1777277229.7283783,1.198267936706543,-2.4473377666869105,-0.6324965953826904,-1.33114047468219,1.7361748218536377,-0.3630183378802698,0
1777277229.7383776,1.1982406377792358,-2.448318143884176,-0.6324213147163391,-1.3308446866324921,1.7361949682235718,-0.36244374910463506,0
1777277229.7483757,1.1982247829437256,-2.449381013909811,-0.6323407888412476,-1.3304936450770875,1.7362003326416016,-0.3618205229388636,0
1777277229.7583995,1.1982128620147705,-2.450461050073141,-0.6322142481803894,-1.3301928502372284,1.7362706661224365,-0.361154858266012,0
1777277229.7684457,1.1981927156448364,-2.451580663720602,-0.6321251392364502,-1.3298274141601105,1.7363295555114746,-0.36036855379213506,0
1777277229.7784367,1.1981565952301025,-2.4527293644347132,-0.6319660544395447,-1.329499216084816,1.7363224029541016,-0.3595231215106409,0
1777277229.788442,1.1981134414672852,-2.4539243183531703,-0.6317964792251587,-1.3291399788907547,1.7363379001617432,-0.35870343843568975,0
1777277229.798446,1.1981086730957031,-2.4551297626891078,-0.6316853761672974,-1.3287288558534165,1.7363533973693848,-0.3578446547137659,0
1777277229.8085046,1.198084831237793,-2.4563118420042933,-0.631507158279419,-1.32840088129554,1.7363343238830566,-0.3570521513568323,0
1777277229.8184817,1.198072910308838,-2.457463880578512,-0.6313858032226562,-1.3280219596675416,1.7363498210906982,-0.35636693636049444,0
1777277229.8284695,1.1981205940246582,-2.4586969814696253,-0.631238579750061,-1.3276352596334,1.73630690574646,-0.355753246937887,0
1777277229.8384988,1.1981289386749268,-2.4598919353880824,-0.6310605406761169,-1.327294797902443,1.7362914085388184,-0.3552334944354456,0
1777277229.8484802,1.1981768608093262,-2.4610630474486292,-0.6309235095977783,-1.3269509834102173,1.736266851425171,-0.35487062135805303,0
1777277229.8584962,1.1982333660125732,-2.4622518024840296,-0.6308431625366211,-1.3265809577754517,1.7361629009246826,-0.35467702547182256,0
1777277229.868525,1.1983555555343628,-2.4633590183653773,-0.6306771636009216,-1.3262801480344315,1.7361187934875488,-0.3546083609210413,0
1777277229.8785126,1.1984716653823853,-2.464466711083883,-0.630536675453186,-1.3259291362813492,1.7360032796859741,-0.3547475973712366,0
1777277229.8885288,1.198575735092163,-2.465600153008932,-0.6303859949111938,-1.3255897921374817,1.735926628112793,-0.3549578825580042,0
1777277229.8985488,1.1987782716751099,-2.4666668377318324,-0.6302680969238281,-1.3252942276052018,1.7358390092849731,-0.3552339712726038,0
1777277229.9085534,1.198904037475586,-2.4677211246886195,-0.6300694942474365,-1.325037808423378,1.7357499599456787,-0.35554248491396123,0
1777277229.9186058,1.199145793914795,-2.468760152856344,-0.629908561706543,-1.3246918332627793,1.7356112003326416,-0.35591394106020147,0
1777277229.928585,1.1993422508239746,-2.469830175439352,-0.6297409534454346,-1.3244471561959763,1.735534429550171,-0.3562834898578089,0
1777277229.9386053,1.199545979499817,-2.470865865746969,-0.6295886039733887,-1.3242026281407853,1.735386848449707,-0.3566344420062464,0
1777277229.9485846,1.1998082399368286,-2.471978803674215,-0.6294138431549072,-1.3239358079484482,1.7352051734924316,-0.35693484941591436,0
1777277229.9586017,1.200032114982605,-2.473014017144674,-0.6292427778244019,-1.323668510918953,1.7350993156433105,-0.35714751878847295,0
1777277229.9686,1.2002836465835571,-2.4740735493102015,-0.629086971282959,-1.3234011989882966,1.7349557876586914,-0.35724145570863897,0
1777277229.9786043,1.200531244277954,-2.475222726861471,-0.6289860010147095,-1.3231892597726365,1.734816551208496,-0.357368294392721,0
1777277229.9886234,1.2008382081985474,-2.4763370953001917,-0.6288508176803589,-1.3228859615376969,1.7347195148468018,-0.35739070573915654,0
1777277229.9986467,1.201145887374878,-2.47741236309194,-0.6287001371383667,-1.3226380956223984,1.734647512435913,-0.35740739503969365,0
1777277230.0086544,1.201505184173584,-2.478541990319723,-0.6285922527313232,-1.3223313850215455,1.7345880270004272,-0.3574917952166956,0
1777277230.0186644,1.2018879652023315,-2.479641099969381,-0.6284914612770081,-1.3219804179719468,1.7345290184020996,-0.35766631761659795,0
1777277230.0286584,1.2023229598999023,-2.480755468408102,-0.6283938884735107,-1.3216763001731415,1.7345516681671143,-0.35783082643617803,0
1777277230.0386944,1.2028141021728516,-2.4818769894041957,-0.6282826662063599,-1.3213203710368653,1.7345635890960693,-0.3580229918109339,0
1777277230.0487046,1.2032978534698486,-2.4829727611937464,-0.6281369924545288,-1.3209333580783387,1.7345325946807861,-0.3582547346698206,0
1777277230.0587008,1.2038750648498535,-2.4840785465636195,-0.6279966831207275,-1.320541338329651,1.7345707416534424,-0.358466927205221,0
1777277230.068703,1.20440673828125,-2.4851657352843226,-0.6278631091117859,-1.3201629680446167,1.7345600128173828,-0.3586948553668421,0
1777277230.0787284,1.2050318717956543,-2.486244340936178,-0.6276167631149292,-1.3197951179793854,1.7346117496490479,-0.3588321844684046,0
1777277230.0887275,1.2055925130844116,-2.487331052819723,-0.6273994445800781,-1.3193962138942261,1.734635591506958,-0.3589676062213343,0
1777277230.0987341,1.206163763999939,-2.4884287319579066,-0.6270637512207031,-1.3190402549556275,1.734648585319519,-0.35897618929018194,0
1777277230.1087613,1.2067385911941528,-2.4895512066283167,-0.6268020868301392,-1.3186608117869874,1.7347159385681152,-0.3589437643634241,0
1777277230.1187806,1.207301378250122,-2.4907175503172816,-0.6265075206756592,-1.3182940048030396,1.7347123622894287,-0.35881358781923467,0
1777277230.1287684,1.2078715562820435,-2.491892000237936,-0.6262061595916748,-1.3179502946189423,1.7347713708877563,-0.3586967627154749,0
1777277230.1388113,1.2084499597549438,-2.4930392704405726,-0.6259991526603699,-1.317594276075699,1.734755277633667,-0.35855275789369756,0
1777277230.1487997,1.2089695930480957,-2.4942766628661097,-0.6258469820022583,-1.3171763283065339,1.7347397804260254,-0.35839730898012334,0
1777277230.1588168,1.209484577178955,-2.4954868755736292,-0.6256722807884216,-1.3167604965022583,1.7347278594970703,-0.35821706453432256,0
1777277230.1688082,1.2100236415863037,-2.4967128239073695,-0.6257049441337585,-1.3162621420672913,1.7347350120544434,-0.35798579851259404,0
1777277230.178825,1.2104988098144531,-2.4978987179198207,-0.6256723403930664,-1.3157960039428254,1.7346956729888916,-0.3577693144427698,0
1777277230.188884,1.2109816074371338,-2.499077936212057,-0.6257390975952148,-1.315334753399231,1.7346081733703613,-0.3575175444232386,0
1777277230.1988423,1.2114284038543701,-2.50016512493276,-0.6258847117424011,-1.3148795825294037,1.7345527410507202,-0.35722572008241826,0
1777277230.2088563,1.2118127346038818,-2.5012556515135707,-0.6259752511978149,-1.3144122821143647,1.7345004081726074,-0.35691720644106084,0
1777277230.218863,1.2121875286102295,-2.502305646935934,-0.6261569857597351,-1.3140014571002503,1.7343969345092773,-0.35658198991884404,0
1777277230.228871,1.2124812602996826,-2.5032650432982386,-0.6262732744216919,-1.313589022760727,1.7343320846557617,-0.35615760484804326,0
1777277230.2388995,1.2128926515579224,-2.5041328869261683,-0.6263656616210938,-1.3132538360408326,1.7342565059661865,-0.3556864897357386,0
1777277230.2488947,1.2131695747375488,-2.5049196682372035,-0.6264734268188477,-1.312937543993332,1.7342119216918945,-0.35514623323549444,0
1777277230.2589073,1.2134416103363037,-2.5056425533690394,-0.6265692114830017,-1.3126394015601655,1.7341761589050293,-0.354563061391012,0
1777277230.2689319,1.2137084007263184,-2.5062934360899867,-0.6265588998794556,-1.3124259275249024,1.734108805656433,-0.3539517561541956,0
1777277230.2789714,1.2139718532562256,-2.506845613519186,-0.6265932321548462,-1.3122031849673768,1.7340922355651855,-0.35333091417421514,0
1777277230.2889388,1.2142319679260254,-2.5073920689024867,-0.6265658140182495,-1.3120389443686982,1.7340600490570068,-0.3526676336871546,0
1777277230.505323,1.2147517204284668,-2.508360525170797,-0.6265932321548462,-1.3117755216411133,1.7338922023773193,-0.35108691850771123,0
1777277230.5152543,1.2147409915924072,-2.5083967647948207,-0.6265813708305359,-1.311775491838791,1.7338731288909912,-0.3510835806476038,255
1777277230.5252721,1.2147719860076904,-2.508387704888815,-0.626672089099884,-1.311791018848755,1.7338957786560059,-0.35110408464540654,255
1777277230.5352986,1.2147636413574219,-2.5083209476866664,-0.6268055438995361,-1.3118305963328858,1.7338767051696777,-0.35119468370546514,255
1777277230.5452967,1.2147912979125977,-2.508214136163229,-0.6270744800567627,-1.311914549475052,1.7338922023773193,-0.3513115088092249,0
1777277230.555304,1.2148151397705078,-2.5082198582091273,-0.627351701259613,-1.312089429502823,1.7338969707489014,-0.35149985948671514,0
1777277230.5653005,1.214887261390686,-2.508165021935934,-0.6277059316635132,-1.3122893434813996,1.7339363098144531,-0.3517831007586878,0
1777277230.5753353,1.2150065898895264,-2.5081449947752894,-0.6280584335327148,-1.3125891250422974,1.7339725494384766,-0.3520711104022425,0
1777277230.585338,1.2151074409484863,-2.508137365380758,-0.6284383535385132,-1.312971131210663,1.734039306640625,-0.3523901144610804,0
1777277230.595329,1.2152619361877441,-2.5081340275206507,-0.6288013458251953,-1.3133786183646698,1.7340648174285889,-0.35264379182924444,0
1777277230.6053803,1.2153816223144531,-2.5081807575621546,-0.6290888786315918,-1.3138265174678345,1.7341387271881104,-0.3528988997088831,0
1777277230.6153796,1.2155135869979858,-2.508184095422262,-0.6293403506278992,-1.3142779928496857,1.7342071533203125,-0.35306007066835576,0
1777277230.6253889,1.2155661582946777,-2.508184095422262,-0.6294498443603516,-1.3147333723357697,1.734215497970581,-0.35319215456117803,0
1777277230.6353743,1.2156327962875366,-2.5082441769041957,-0.6295132637023926,-1.3152558368495484,1.7342171669006348,-0.3532164732562464,0
1777277230.6453853,1.2156448364257812,-2.508279939691061,-0.6295098066329956,-1.3157624167254944,1.7342398166656494,-0.3532040754901331,0
1777277230.6553974,1.2156808376312256,-2.508348604241842,-0.6294379234313965,-1.3162538570216675,1.734248161315918,-0.35318023363222295,0
1777277230.6654017,1.215720534324646,-2.508475442925924,-0.6293385028839111,-1.3166971665671845,1.7342636585235596,-0.35319549242128545,0
1777277230.6754181,1.2157061100006104,-2.508610864678854,-0.6292462348937988,-1.3171128791621705,1.7342255115509033,-0.35316783586610967,0
1777277230.685436,1.2157888412475586,-2.5087510548033656,-0.6291588544845581,-1.317516492014267,1.734248161315918,-0.35319549242128545,0
1777277230.6954489,1.2158451080322266,-2.508875986138815,-0.629153847694397,-1.3178400260261078,1.734248161315918,-0.3531854788409632,0
1777277230.705457,1.2159719467163086,-2.5090390644469203,-0.6292086243629456,-1.3181081873229523,1.7342445850372314,-0.35333091417421514,0
1777277230.7154505,1.2160329818725586,-2.509202619592184,-0.6292171478271484,-1.3183358770659943,1.734248161315918,-0.3534906546222132,0
1777277230.725473,1.2161755561828613,-2.5093895397581996,-0.6292806267738342,-1.3185948890498658,1.734260082244873,-0.35363942781557256,0
1777277230.7355072,1.2162487506866455,-2.5095936260619105,-0.6293214559555054,-1.3187433046153565,1.734241008758545,-0.35382301012148076,0
1777277230.7454915,1.2163360118865967,-2.50979008297109,-0.6293898224830627,-1.3188834947398682,1.7342910766601562,-0.3539512793170374,0
1777277230.75552,1.2163684368133545,-2.510033269921774,-0.6294328570365906,-1.3190067571452637,1.7342529296875,-0.3541196028338831,0
1777277230.7655094,1.2164270877838135,-2.5103002987303675,-0.6293984651565552,-1.3191231352141877,1.7343077659606934,-0.3542516867267054,0
1777277230.7755766,1.2164077758789062,-2.5105415783324183,-0.6294328570365906,-1.3192308706096192,1.7343165874481201,-0.35437137285341436,0
1777277230.7855632,1.2163684368133545,-2.510836263696188,-0.6293933391571045,-1.3193112176707764,1.7344024181365967,-0.3544071356402796,0
1777277230.7955625,1.2163012027740479,-2.5111829243102015,-0.6292992830276489,-1.319383220081665,1.7343844175338745,-0.3543956915484827,0
1777277230.8055675,1.2162692546844482,-2.5114556751646937,-0.629246175289154,-1.3194502157023926,1.7344326972961426,-0.354379955922262,0
1777277230.815638,1.216193675994873,-2.511810442010397,-0.629165768623352,-1.319446639423706,1.734494686126709,-0.35436803499330694,0
1777277230.825613,1.2161756753921509,-2.5121475658812464,-0.6291163563728333,-1.3194192212871094,1.7345242500305176,-0.354316536580221,0
1777277230.8356614,1.2160894870758057,-2.5125018558897914,-0.6289945840835571,-1.3194585603526612,1.7345325946807861,-0.35424501100649053,0
1777277230.8456748,1.2160210609436035,-2.51287378887319,-0.6289485096931458,-1.319446639423706,1.734579086303711,-0.35415774980653936,0
1777277230.855675,1.215942144393921,-2.513221879998678,-0.6288523077964783,-1.3194106382182618,1.7345527410507202,-0.3541010061847132,0
1777277230.8656976,1.2158894538879395,-2.5136319599547328,-0.6288542747497559,-1.3193471890738984,1.7345671653747559,-0.3540080229388636,0
1777277230.875701,1.215834379196167,-2.5139690838255824,-0.6288647055625916,-1.3192981642535706,1.7345325946807861,-0.35395843187441045,0
1777277230.8857324,1.2157864570617676,-2.5143987141051234,-0.6288577914237976,-1.3191912037185212,1.7345516681671143,-0.3538249174701136,0
1777277230.8957267,1.2157816886901855,-2.5147701702513636,-0.6288936138153076,-1.3191505831531067,1.734508752822876,-0.35374433199037725,0
1777277230.9057384,1.2158246040344238,-2.5151106319823207,-0.628926157951355,-1.3189995747855683,1.734527826309204,-0.3536723295794886,0
1777277230.9157302,1.2158331871032715,-2.5154620609679164,-0.628922700881958,-1.3189073365977784,1.7345123291015625,-0.3536155859576624,0
1777277230.9257884,1.2158534526824951,-2.5158125362791957,-0.6289501190185547,-1.318768249159195,1.7344517707824707,-0.35354882875551397,0
1777277230.935749,1.215904951095581,-2.516109128991598,-0.6289894580841064,-1.318645254974701,1.734412431716919,-0.3534920851336878,0
1777277230.9458454,1.2159337997436523,-2.5163966617979945,-0.6290050148963928,-1.3185407680324097,1.7344350814819336,-0.3534615675555628,0
1777277230.9558213,1.2159886360168457,-2.5166522465147914,-0.6290014982223511,-1.318420873289444,1.7343761920928955,-0.35346824327577764,0
1777277230.9658577,1.2160401344299316,-2.5169226131834925,-0.6289790272712708,-1.3183527749827881,1.734386920928955,-0.35345250764955694,0
1777277230.9758406,1.2160844802856445,-2.5171696148314417,-0.6289860010147095,-1.3183156710914155,1.7343368530273438,-0.3534801642047327,0
1777277230.9858842,1.2161601781845093,-2.5173899135985316,-0.6290085315704346,-1.3182519239238282,1.7343285083770752,-0.35349876085390264,0
1777277230.9958603,1.2161972522735596,-2.5176168880858363,-0.6289157867431641,-1.3181885343841095,1.7343113422393799,-0.3535555044757288,0
1777277231.0058703,1.2163119316101074,-2.5178753338255824,-0.6289175748825073,-1.3181250256351014,1.7342684268951416,-0.3536484877215784,0
1777277231.0159101,1.2164041996002197,-2.518095155755514,-0.6288335919380188,-1.3180566889098664,1.7342326641082764,-0.3537357489215296,0
1777277231.025891,1.2164881229400635,-2.5183893642821253,-0.6287310123443604,-1.317993239765503,1.7341809272766113,-0.35388690630068,0
1777277231.0359144,1.2165961265563965,-2.518667837182516,-0.6285752058029175,-1.3179131311229249,1.7341487407684326,-0.35397226015199834,0
1777277231.045918,1.216719150543213,-2.5188914738097132,-0.6284569501876831,-1.3178374630263825,1.7341351509094238,-0.3541196028338831,0
1777277231.0559123,1.2167994976043701,-2.5191475353636683,-0.6283082962036133,-1.3177776795676728,1.7340248823165894,-0.35430652299989873,0
1777277231.0659215,1.2169039249420166,-2.519414087335104,-0.6282107830047607,-1.3177452844432374,1.7339963912963867,-0.35444718996156865,0
1777277231.075951,1.217006802558899,-2.5196343861021937,-0.6280325651168823,-1.3176901203444977,1.7339290380477905,-0.35453969637026006,0
1777277231.0859785,1.2171263694763184,-2.5198680363097132,-0.6279196739196777,-1.3177131575397034,1.733900547027588,-0.35462886491884404,0
1777277231.0959644,1.2172067165374756,-2.520083566705221,-0.6278752088546753,-1.3176936966231843,1.7338957786560059,-0.3546679655658167,0
1777277231.105992,1.2173097133636475,-2.5202628574767054,-0.6277604699134827,-1.3177369397929688,1.7338368892669678,-0.3546679655658167,0
1777277231.1159825,1.2173502445220947,-2.5204183063902796,-0.6276836395263672,-1.317697362308838,1.7338440418243408,-0.354710880910055,0
1777277231.1260142,1.2173981666564941,-2.5205775700011195,-0.6276286244392395,-1.3177405756763,1.7338321208953857,-0.35468036333193,0
1777277231.136016,1.2174222469329834,-2.520665784875387,-0.6276390552520752,-1.3177574437907715,1.7338130474090576,-0.3546679655658167,0
1777277231.1460214,1.217430591583252,-2.520756860772604,-0.6276820302009583,-1.3178447049907227,1.7338201999664307,-0.35463220277895147,0
1777277231.1560407,1.2174222469329834,-2.5208126507201136,-0.6276321411132812,-1.3178698879531403,1.7338201999664307,-0.3546407858477991,0
1777277231.1660717,1.2174186706542969,-2.520867963830465,-0.6276595592498779,-1.3179646295360108,1.733785629272461,-0.35462886491884404,0
1777277231.176075,1.217391014099121,-2.520836969415182,-0.6276955604553223,-1.3180206579020997,1.7338285446166992,-0.3546507994281214,0
1777277231.1862013,1.2174103260040283,-2.520809312860006,-0.6277281045913696,-1.3181203764728089,1.733855962753296,-0.35463220277895147,0
1777277231.196116,1.217429518699646,-2.5207940540709437,-0.627782940864563,-1.3181885045817872,1.7338647842407227,-0.35465985933412725,0
1777277231.206118,1.2174413204193115,-2.520749708215231,-0.6277639865875244,-1.3182533246329804,1.7338922023773193,-0.35467464128603154,0
1777277231.216154,1.2174222469329834,-2.520710607568258,-0.6277965307235718,-1.3183959883502503,1.7339279651641846,-0.35465985933412725,0
1777277231.226155,1.2174222469329834,-2.5206572018065394,-0.6278908252716064,-1.3185278636268158,1.7339363098144531,-0.3546713034259241,0
1777277231.2361495,1.2173945903778076,-2.5205990276732386,-0.6278647780418396,-1.3186164659312745,1.73396897315979,-0.35462886491884404,0
1777277231.2462246,1.2173981666564941,-2.520531316796774,-0.6279470920562744,-1.3187874120524903,1.7340047359466553,-0.3545568625079554,0
1777277231.2561946,1.217421054840088,-2.5204864941039027,-0.6279317140579224,-1.3189541560462494,1.7339963912963867,-0.3544881979571741,0
1777277231.2662656,1.2174017429351807,-2.5204183063902796,-0.6279606223106384,-1.3190751832774659,1.7339892387390137,-0.3543608824359339,0
1777277231.2762785,1.2174017429351807,-2.5203706226744593,-0.6279282569885254,-1.3192380231669922,1.7340238094329834,-0.3542845884906214,0
1777277231.2862232,1.2173552513122559,-2.520271440545553,-0.6279042959213257,-1.3193507951549073,1.7340357303619385,-0.35417253175844365,0
1777277231.2962365,1.2173981666564941,-2.5202442608275355,-0.627883791923523,-1.3195411723903199,1.7340083122253418,-0.35404903093446904,0
1777277231.306277,1.2174017429351807,-2.5202237568297328,-0.6278324127197266,-1.3196539145759125,1.7339892387390137,-0.35395700136293584,0
1777277231.3162487,1.2173826694488525,-2.52022709468984,-0.6277346611022949,-1.3198095125010987,1.7339963912963867,-0.3538449446307581,0
1777277231.3262768,1.2173981666564941,-2.5201922855772914,-0.627700686454773,-1.319917307501175,1.7339928150177002,-0.35377675691713506,0
1777277231.3363135,1.2173707485198975,-2.5201808414854945,-0.6276732087135315,-1.3200563055327912,1.733957052230835,-0.353708569203512,0
1777277231.3463023,1.2173898220062256,-2.5201670132079066,-0.6276646256446838,-1.320113943224289,1.733913540840149,-0.3536484877215784,0
1777277231.3563113,1.217362403869629,-2.5201007328429164,-0.6276251673698425,-1.3201845747283478,1.733912467956543,-0.35356456438173467,0
1777277231.3663287,1.2173196077346802,-2.5199929676451625,-0.6276907324790955,-1.3202097874930878,1.7338886260986328,-0.3534734884845179,0
1777277231.3763297,1.2173025608062744,-2.5198737583556117,-0.6276801824569702,-1.320237473850586,1.7338850498199463,-0.35336476961244756,0
1777277231.3863444,1.2172703742980957,-2.5197302303709925,-0.6277041435241699,-1.3202526730350037,1.7338612079620361,-0.353281323109762,0
1777277231.396352,1.217139720916748,-2.5195986233153285,-0.6277674436569214,-1.320261077289917,1.7338684797286987,-0.3532164732562464,0
1777277231.4063754,1.2170556783676147,-2.5195332966246546,-0.6277844309806824,-1.320300654774048,1.7338647842407227,-0.35314733186830694,0
1777277231.416385,1.2169482707977295,-2.519482275048727,-0.6278049349784851,-1.320312575703003,1.7338404655456543,-0.35304481187929326,0
1777277231.4263947,1.2168235778808594,-2.519470354119772,-0.6278547644615173,-1.320289896135666,1.7338166236877441,-0.3530157248126429,0
1777277231.4363985,1.2166484594345093,-2.5195538006224574,-0.6278612613677979,-1.3203100723079224,1.733780860900879,-0.3529604117022913,0
1777277231.4464118,1.2165050506591797,-2.5196529827513636,-0.6278733015060425,-1.3203450006297608,1.7337136268615723,-0.3529556433307093,0
1777277231.4564705,1.2163525819778442,-2.519777914086813,-0.6279266476631165,-1.3203414243510743,1.7337124347686768,-0.352943245564596,0
1777277231.4664187,1.2162020206451416,-2.5199247799315394,-0.6278887391090393,-1.3203724187663575,1.73362135887146,-0.3529284636126917,0
1777277231.4764693,1.2160978317260742,-2.520066877404684,-0.6279077529907227,-1.3203533452800293,1.733616590499878,-0.3529465834247034,0
1777277231.486476,1.2159897089004517,-2.520170827905172,-0.6278817653656006,-1.3203651768020173,1.7335457801818848,-0.352943245564596,0
1777277231.4964786,1.2159063816070557,-2.5201994381346644,-0.6279231309890747,-1.3203533452800293,1.733501672744751,-0.35293323198427373,0
1777277231.5065255,1.2158775329589844,-2.5201603374876917,-0.6279147267341614,-1.3203223210624238,1.7335125207901,-0.3530157248126429,0
1777277231.5165129,1.2158616781234741,-2.5201007328429164,-0.6278921961784363,-1.3202815514853974,1.733452320098877,-0.35307580629457647,0
1777277231.5265033,1.215846300125122,-2.519938131371969,-0.6278887391090393,-1.320276604299881,1.7334249019622803,-0.35315066972841436,0
1777277231.536583,1.2158582210540771,-2.5197659931578578,-0.6278887391090393,-1.3201942902854462,1.7333778142929077,-0.35320741335024053,0
1777277231.5465283,1.2158894538879395,-2.5195709667601527,-0.627895712852478,-1.320148543720581,1.7333886623382568,-0.35327083269228154,0
1777277231.5565526,1.2159171104431152,-2.519355436364645,-0.627899169921875,-1.320050523882248,1.7333970069885254,-0.3532608191119593,0
1777277231.566562,1.2159290313720703,-2.5191251240172328,-0.6278887391090393,-1.320021705036499,1.7334041595458984,-0.3532760779010218,0
1777277231.7679262,1.2157695293426514,-2.519090791741842,-0.6279042959213257,-1.3198934358409424,1.733349323272705,-0.3533275763141077,0
1777277231.7778783,1.2157576084136963,-2.519107004205221,-0.6279231309890747,-1.3199007374099274,1.7333648204803467,-0.3533394972430628,255
1777277231.7878733,1.2157456874847412,-2.5190874538817347,-0.6279401183128357,-1.3198862832835694,1.7333803176879883,-0.35337907472719365,255
1777277231.7978783,1.2157467603683472,-2.519099851647848,-0.6279726624488831,-1.3199258607677002,1.7333850860595703,-0.35339290300478154,255
1777277231.8079376,1.2158260345458984,-2.5190874538817347,-0.628143846988678,-1.32009710491214,1.733469009399414,-0.35359317461122686,255
1777277231.8179166,1.2159290313720703,-2.519068857232565,-0.6283305883407593,-1.3202253145030518,1.733564853668213,-0.3537233511554163,0
1777277231.827925,1.2161157131195068,-2.5190278492369593,-0.6285392642021179,-1.3204315167716523,1.7337077856063843,-0.3539546171771448,0
1777277231.8379576,1.2162405252456665,-2.5189372501769007,-0.6287739872932434,-1.3206396859935303,1.7338249683380127,-0.35417491594423467,0
1777277231.8479412,1.2164318561553955,-2.518931051293844,-0.6290510296821594,-1.320970506673195,1.7340071201324463,-0.35445911089052373,0
1777277231.8579578,1.216604471206665,-2.51886047939443,-0.6294398307800293,-1.3212353003076096,1.7341558933258057,-0.3548038641559046,0
1777277231.8680837,1.2168030738830566,-2.5188094578185023,-0.6298471093177795,-1.321594850426056,1.734255313873291,-0.355201546345846,0
1777277231.878027,1.2170052528381348,-2.51871456722402,-0.6302960515022278,-1.3219217222980042,1.7343149185180664,-0.3556149641620081,0
1777277231.8880384,1.2171458005905151,-2.5187255344786585,-0.6305795907974243,-1.3222571325353165,1.7343238592147827,-0.3560293356524866,0
1777277231.89805,1.2172977924346924,-2.5186931095519007,-0.6310059428215027,-1.3226034802249451,1.7343113422393799,-0.3564494291888636,0
1777277231.9080935,1.2173981666564941,-2.51861109356069,-0.6313808560371399,-1.3228957068971177,1.7342636585235596,-0.35679895082582647,0
1777277231.9180677,1.2175289392471313,-2.5185734234251917,-0.631743848323822,-1.3231604856303711,1.7342243194580078,-0.3571708838092249,0
1777277231.92807,1.217610239982605,-2.5184627972044886,-0.6320123672485352,-1.3234203618815918,1.7341440916061401,-0.35743695894350225,0
1777277231.9381142,1.2177408933639526,-2.5183192692198695,-0.6322195529937744,-1.323793203835823,1.7340648174285889,-0.35762340227235967,0
1777277231.9481137,1.2178139686584473,-2.518127580682272,-0.632371723651886,-1.3240782481483002,1.7339808940887451,-0.3578274885760706,0
1777277231.9581163,1.2178809642791748,-2.5180045566954554,-0.6323372721672058,-1.3243574512055893,1.7339589595794678,-0.3578427473651331,0
1777277231.9681594,1.2178943157196045,-2.517773767510885,-0.6322330236434937,-1.324634150867798,1.7338731288909912,-0.3578394095050257,0
1777277231.978152,1.2179133892059326,-2.517656465569967,-0.6320018172264099,-1.3249286276153107,1.7338684797286987,-0.3577011267291468,0
1777277231.9881423,1.217897891998291,-2.5175024471678675,-0.6317996382713318,-1.3251170229962845,1.7338486909866333,-0.3576319853412073,0
1777277231.9981544,1.2179014682769775,-2.517329832116598,-0.6315430998802185,-1.3254044961980362,1.7338767051696777,-0.3574608008014124,0
1777277232.008184,1.217846393585205,-2.5172273121275843,-0.6312998533248901,-1.325592355137207,1.7339160442352295,-0.35735780397524053,0
1777277232.0181773,1.217846393585205,-2.5172025165953578,-0.631015956401825,-1.3258477014354249,1.7339844703674316,-0.3572176138507288,0
1777277232.028187,1.217846393585205,-2.517174383203024,-0.6307523846626282,-1.326006979947426,1.7341268062591553,-0.35710078874696904,0
1777277232.0382338,1.2178258895874023,-2.5172344646849574,-0.6305056214332581,-1.3261352342418213,1.734191656112671,-0.35700828233827764,0
1777277232.0483165,1.2178378105163574,-2.517388483087057,-0.6302794814109802,-1.32614357889209,1.7343274354934692,-0.3569391409503382,0
1777277232.0582469,1.2178258895874023,-2.517524858514303,-0.6301652789115906,-1.3261485409787674,1.7344434261322021,-0.3569276968585413,0
1777277232.0683577,1.2178535461425781,-2.517684122125143,-0.630028486251831,-1.3261280816844483,1.7346272468566895,-0.35691529909242803,0
1777277232.078277,1.2178845405578613,-2.5178410015501917,-0.6299190521240234,-1.3261078310063859,1.7347314357757568,-0.35688811937441045,0
1777277232.0882778,1.2178583145141602,-2.5180355511107386,-0.6297528743743896,-1.326023892765381,1.7348546981811523,-0.35690385500063115,0
1777277232.098391,1.2179014682769775,-2.5181743107237757,-0.6296071410179138,-1.3258848798326035,1.7348946332931519,-0.35684043565859014,0
1777277232.1083517,1.2179408073425293,-2.5182506046690882,-0.6294977068901062,-1.325796203022339,1.7348873615264893,-0.3567889372455042,0
1777277232.1183498,1.2179768085479736,-2.5183450184264125,-0.6293435096740723,-1.3256488305381318,1.7348527908325195,-0.35673553148378545,0
1777277232.1283498,1.2180163860321045,-2.518358369866842,-0.62933349609375,-1.3254848283580323,1.7348438501358032,-0.35664493242372686,0
1777277232.1383922,1.2180092334747314,-2.5184012852110804,-0.6292736530303955,-1.3252654683640976,1.734792709350586,-0.35655242601503545,0
1777277232.1483688,1.2180010080337524,-2.518378873864645,-0.6292976140975952,-1.325061873798706,1.7347242832183838,-0.3564375082599085,0
1777277232.1583874,1.2179458141326904,-2.518445154229635,-0.6293454170227051,-1.3248065125993271,1.73468017578125,-0.35632115999330694,0
1777277232.16842,1.2178738117218018,-2.518489976922506,-0.6293827891349792,-1.3245754104903718,1.7346045970916748,-0.3562124411212366,0
1777277232.1784153,1.2177934646606445,-2.5185958347716273,-0.6295716762542725,-1.3243596118739625,1.7345516681671143,-0.35610801378359014,0
1777277232.188431,1.2176856994628906,-2.5186811886229457,-0.6297035813331604,-1.3242231023362656,1.7344636917114258,-0.35597306886781865,0
1777277232.19844,1.2175742387771606,-2.518804212609762,-0.6298043131828308,-1.3241225642016907,1.7343969345092773,-0.3558405081378382,0
1777277232.2084663,1.2174737453460693,-2.518923898736471,-0.6298966407775879,-1.3241226089051743,1.7343761920928955,-0.35569698015321904,0
1777277232.2185042,1.2173429727554321,-2.519043108026022,-0.6299960017204285,-1.3241705161384125,1.7343320846557617,-0.3555682341205042,0
1777277232.2284725,1.2172560691833496,-2.5191594562926234,-0.6300474405288696,-1.3243189466050644,1.7343113422393799,-0.355417553578512,0
1777277232.2385445,1.2172391414642334,-2.519301553765768,-0.6300164461135864,-1.324498714213707,1.7342875003814697,-0.35531598726381475,0
1777277232.2485442,1.2172236442565918,-2.519362588922018,-0.6300045251846313,-1.3247610342553635,1.7342755794525146,-0.35524064699281865,0
1777277232.2585683,1.2172462940216064,-2.5194345913329066,-0.6299600005149841,-1.325055794124939,1.7342517375946045,-0.355201546345846,0
1777277232.2686093,1.2172703742980957,-2.5195285282530726,-0.6299050450325012,-1.3253518652966996,1.734204649925232,-0.3552201429950159,0
1777277232.2785735,1.2172822952270508,-2.5194956264891566,-0.6299015283584595,-1.3257040244391938,1.7341845035552979,-0.3552597204791468,0
1777277232.288584,1.2172751426696777,-2.5195332966246546,-0.6299360394477844,-1.3260671359351655,1.7341279983520508,-0.35536414781679326,0
1777277232.298604,1.2172942161560059,-2.5195418796935023,-0.6299340724945068,-1.3263544154218216,1.7340683937072754,-0.35549909273256475,0
1777277232.3086114,1.2172236442565918,-2.5194512806334437,-0.6300508975982666,-1.3266217422536393,1.7339880466461182,-0.3556402365313929,0
1777277232.3186047,1.2171828746795654,-2.519379278222555,-0.6301003694534302,-1.3268025678447266,1.7338731288909912,-0.3558905760394495,0
1777277232.3286333,1.2170881032943726,-2.519275804559225,-0.6301926970481873,-1.3270010960153122,1.7337726354599,-0.35613900819887334,0
1777277232.3386328,1.2170870304107666,-2.519174715081686,-0.6302837133407593,-1.32714136064563,1.7336452007293701,-0.35641175905336553,0
1777277232.3486335,1.217078447341919,-2.5190278492369593,-0.6303927898406982,-1.327312783604004,1.733564853668213,-0.3567102591144007,0
1777277232.3586621,1.2170748710632324,-2.518904825250143,-0.6305422186851501,-1.327516720896103,1.7334736585617065,-0.35699493089784795,0
1777277232.3687222,1.2171025276184082,-2.518797536889547,-0.6306105852127075,-1.3277083945325394,1.7334213256835938,-0.3572586218463343,0
1777277232.378734,1.2171119451522827,-2.518740793267721,-0.6307494044303894,-1.3279526990703125,1.7333648204803467,-0.3574865500079554,0
1777277232.388843,1.2171828746795654,-2.5186573467650355,-0.6307868361473083,-1.328262985949852,1.733304738998413,-0.35769540468324834,0
1777277232.3987992,1.2172462940216064,-2.518609663049215,-0.6308396458625793,-1.3285862070373078,1.7332499027252197,-0.3579066435443323,0
1777277232.4087934,1.2172667980194092,-2.5185581646361292,-0.6308825612068176,-1.3289255660823365,1.7332534790039062,-0.35804731050600225,0
1777277232.4188175,1.217306137084961,-2.5185376606383265,-0.6308550834655762,-1.3292654615691681,1.7332308292388916,-0.35818750063051397,0
1777277232.4288073,1.2172906398773193,-2.518482824365133,-0.6308586001396179,-1.3296671521714707,1.7332689762115479,-0.35827380815614873,0
1777277232.4388657,1.2172942161560059,-2.518489976922506,-0.6308121681213379,-1.3300083738616486,1.733299970626831,-0.3583486715899866,0
1777277232.4488442,1.2172977924346924,-2.518447061578268,-0.6307677626609802,-1.3303560477546235,1.733304738998413,-0.35842782655824834,0
1777277232.4588993,1.2172582149505615,-2.518447061578268,-0.6306874752044678,-1.3307191890529175,1.7333130836486816,-0.3584516684161585,0
1777277232.4688551,1.217234492301941,-2.5184418163695277,-0.6306204795837402,-1.3310399663499375,1.7333767414093018,-0.35847551027406865,0
1777277232.4788554,1.2171876430511475,-2.518426557580465,-0.6305591464042664,-1.3313862097314377,1.7333576679229736,-0.3585427443133753,0
1777277232.4888623,1.2171707153320312,-2.5184227428831996,-0.630459725856781,-1.3316903871348877,1.7334131002426147,-0.3585475126849573,0
1777277232.4989824,1.217127799987793,-2.5185042820372523,-0.6303123831748962,-1.331981824045517,1.7333886623382568,-0.358556095753805,0
1777277232.50892,1.2171263694763184,-2.518489976922506,-0.6302322149276733,-1.332236574297287,1.7333970069885254,-0.35858041444887334,0
1777277232.518921,1.21708345413208,-2.5185257397093714,-0.6301243305206299,-1.3325122457793732,1.7333850860595703,-0.3586042563067835,0
1777277232.5289285,1.2171025276184082,-2.5185886822142542,-0.6300250291824341,-1.3328036826900025,1.7333457469940186,-0.3586228529559534,0
1777277232.5389547,1.21708345413208,-2.5186249218382777,-0.6299100518226624,-1.3330441278270264,1.7332892417907715,-0.35864335695375615,0
1777277232.5489545,1.2171144485473633,-2.5186335049071253,-0.62992262840271,-1.3333701652339478,1.7332093715667725,-0.358682934437887,0
1777277232.5589657,1.217146873474121,-2.5186335049071253,-0.6298197507858276,-1.333650754099228,1.7331018447875977,-0.3586676756488245,0
1777277232.5689728,1.2172067165374756,-2.5186335049071253,-0.6297304034233093,-1.3339740645936509,1.7330214977264404,-0.3586643377887171,0
1777277232.5789845,1.2172822952270508,-2.518590112725729,-0.6296464204788208,-1.3342424196055909,1.7329328060150146,-0.3586795965777796,0
1777277232.5890038,1.2173572778701782,-2.518534322778219,-0.6295766234397888,-1.334568129186966,1.7328059673309326,-0.35861283937563115,0
1777277232.598982,1.2174140214920044,-2.518486639062399,-0.629501223564148,-1.3347814691117783,1.7327148914337158,-0.3585289160357874,0
1777277232.6090417,1.2174341678619385,-2.518426557580465,-0.6294363737106323,-1.3350761395743866,1.7326607704162598,-0.3583939711200159,0
1777277232.619056,1.2174391746520996,-2.518358369866842,-0.6292511820793152,-1.3352521073869248,1.73256254196167,-0.35820323625673467,0
1777277232.6291263,1.2174582481384277,-2.518271108666891,-0.6291347742080688,-1.335439072256424,1.7325303554534912,-0.3579819838153284,0
1777277232.6390686,1.2174341678619385,-2.5182062588133753,-0.6290459632873535,-1.335558981900551,1.7325410842895508,-0.3577178160296839,0
1777277232.6491823,1.2173981666564941,-2.5181342564024867,-0.6288846135139465,-1.3356321615031739,1.732466697692871,-0.3574026266681116,0
1777277232.6591008,1.2173502445220947,-2.5180045566954554,-0.6287458539009094,-1.335644082432129,1.732469081878662,-0.35712987581361944,0
1777277232.6692064,1.2172906398773193,-2.517912527123922,-0.6286675930023193,-1.3356476438096543,1.7324142456054688,-0.3568065802203577,0
1777277232.6791813,1.2172186374664307,-2.5178233585753382,-0.6286351084709167,-1.335667924290039,1.732393503189087,-0.3565886656390589,0
1777277232.6891494,1.217134952545166,-2.5176855526366175,-0.6286146640777588,-1.3357434880784531,1.7323589324951172,-0.35635692278017217,0
1777277232.6991613,1.2170283794403076,-2.517585893670553,-0.6285955905914307,-1.335820273762085,1.7323696613311768,-0.3562124411212366,0
1777277232.7091997,1.2169828414916992,-2.5174747906126917,-0.6286351084709167,-1.3359267872622986,1.7323458194732666,-0.3561647574054163,0
1777277232.7191832,1.2168761491775513,-2.5174223385252894,-0.6286661028862,-1.3360307973674317,1.7323250770568848,-0.3561647574054163,0
1777277232.7292001,1.2168200016021729,-2.5173708401122035,-0.6286935806274414,-1.3361182671836396,1.7322511672973633,-0.3562586943255823,0
1777277232.7392337,1.2167551517486572,-2.5173732242979945,-0.6286781430244446,-1.3361748468926926,1.732273817062378,-0.3563450018512171,0
1777277232.7492793,1.2166953086853027,-2.517338892022604,-0.6286852359771729,-1.336139978175499,1.7322618961334229,-0.3564356009112757,0
1777277232.7593029,1.216658115386963,-2.5173384151854457,-0.628645658493042,-1.3361197423985978,1.732273817062378,-0.35650426546205694,0
1777277232.769284,1.2165446281433105,-2.5173732242979945,-0.6285082697868347,-1.3361039471677323,1.732285737991333,-0.35663062730898076,0
1777277232.7792804,1.2165157794952393,-2.5173469982542933,-0.6284455060958862,-1.3360956621221085,1.7323250770568848,-0.35666019121278936,0
1777277232.7893004,1.2164329290390015,-2.517386098901266,-0.6281763315200806,-1.336003379230835,1.7323505878448486,-0.35667211214174444,0
1777277232.7992945,1.2163612842559814,-2.517421861688131,-0.628007173538208,-1.3358562749675293,1.732393503189087,-0.35666019121278936,0
1777277232.8093076,1.2163046598434448,-2.5174528561034144,-0.6277914643287659,-1.3357244443944474,1.732461929321289,-0.356605354939596,0
1777277232.8193557,1.2162405252456665,-2.5174581013121546,-0.6275413036346436,-1.335568444137909,1.7325100898742676,-0.356516186391012,0
1777277232.8293602,1.2161251306533813,-2.517481943170065,-0.6273447275161743,-1.335405634050705,1.732581615447998,-0.3563807646380823,0
1777277233.031486,1.216012716293335,-2.517473360101217,-0.6270964741706848,-1.3351612401059647,1.7327613830566406,-0.3560450712787073,0
1777277233.0414522,1.2159969806671143,-2.5174461803831996,-0.6271049976348877,-1.3351576787284394,1.7327768802642822,-0.3560569922076624,0
1777277233.0514119,1.2159969806671143,-2.5174647770323695,-0.6271551251411438,-1.3351734590581437,1.732745885848999,-0.3560999075519007,255
1777277233.0614293,1.2160844802856445,-2.5174924335875453,-0.6271818280220032,-1.3353072267821808,1.732757806777954,-0.3562262693988245,255
1777277233.0715013,1.2161767482757568,-2.5174581013121546,-0.6274030804634094,-1.3354750734618683,1.7327696084976196,-0.3563426176654261,255
1777277233.0814812,1.2163119316101074,-2.517485281030172,-0.6275912523269653,-1.335711033349373,1.7327696084976196,-0.3565867582904261,0
1777277233.0914874,1.2164952754974365,-2.5175215206541957,-0.6278513073921204,-1.3360188466361542,1.7328095436096191,-0.35682374635805303,0
1777277233.1015196,1.2167036533355713,-2.517557283441061,-0.628154456615448,-1.336393879061081,1.7328095436096191,-0.357126537953512,0
1777277233.111517,1.216953992843628,-2.517581125298971,-0.6284815073013306,-1.3369151514819642,1.7328768968582153,-0.3573868910418909,0
1777277233.121545,1.2171865701675415,-2.5175777874388636,-0.6288422346115112,-1.3373597723296662,1.732893466949463,-0.357614819203512,0
1777277233.1315415,1.2174535989761353,-2.5176202259459437,-0.6292483806610107,-1.3378027540496369,1.7329363822937012,-0.3577793280230921,0
1777277233.1415958,1.2177047729492188,-2.5176202259459437,-0.6296282410621643,-1.3382140708020707,1.7329727411270142,-0.3578289190875452,0
1777277233.1515617,1.2179443836212158,-2.5175844631590785,-0.6299733519554138,-1.3385467541268845,1.7329928874969482,-0.35783607164491826,0
1777277233.1615725,1.2181682586669922,-2.517569204370016,-0.6304330825805664,-1.338873804812767,1.733044147491455,-0.3577488104449671,0
1777277233.1716082,1.218371033668518,-2.5175301037230433,-0.630694568157196,-1.339161441927292,1.7330732345581055,-0.35760480562318975,0
1777277233.181598,1.218503713607788,-2.5175143680968226,-0.6309904456138611,-1.3393219423345109,1.7330970764160156,-0.35748511949648076,0
1777277233.1916273,1.2186273336410522,-2.517524858514303,-0.6312660574913025,-1.3394730401090165,1.7331607341766357,-0.3573372999774378,0
1777277233.2016587,1.2186834812164307,-2.5174976787962855,-0.6315127611160278,-1.3395891350558777,1.7331702709197998,-0.3571384588824671,0
1777277233.2116542,1.2186763286590576,-2.5174905262389125,-0.6317595839500427,-1.3395977777293702,1.7332415580749512,-0.35705596605409795,0
1777277233.2216947,1.2186284065246582,-2.5175143680968226,-0.6318580508232117,-1.3395666045001526,1.7332427501678467,-0.35696393648256475,0
1777277233.23173,1.2185444831848145,-2.5175658665099085,-0.6320005059242249,-1.3395723861506958,1.73329758644104,-0.35698110262026006,0
1777277233.2417927,1.2184197902679443,-2.51766361812734,-0.6320998668670654,-1.339493290787079,1.733349323272705,-0.3570593039142054,0
1777277233.25177,1.2182103395462036,-2.517712732354635,-0.6320736408233643,-1.3393903982690354,1.733354091644287,-0.35719186464418584,0
1777277233.2617922,1.2180579900741577,-2.517808576623434,-0.6320567727088928,-1.3392945689013978,1.7333933115005493,-0.3573358694659632,0
1777277233.2718027,1.2179253101348877,-2.5179110966124476,-0.6319848895072937,-1.339147300725319,1.7334058284759521,-0.3575347105609339,0
1777277233.2817981,1.2178175449371338,-2.5179997883238734,-0.6318424344062805,-1.3390154403499146,1.7334344387054443,-0.3577197233783167,0
1777277233.291804,1.2177181243896484,-2.5180560551085414,-0.6317263245582581,-1.338878945713379,1.7335071563720703,-0.35797006288637334,0
1777277233.301853,1.217677354812622,-2.518127580682272,-0.631582498550415,-1.338690535431244,1.7335290908813477,-0.3581755797015589,0
1777277233.3118613,1.2176272869110107,-2.518221994439596,-0.6313977837562561,-1.3384918135455628,1.733513593673706,-0.35841447511781865,0
1777277233.3218827,1.2176809310913086,-2.5182506046690882,-0.6311885118484497,-1.3383226853660126,1.7335100173950195,-0.3585394064532679,0
1777277233.3319452,1.2176618576049805,-2.5182863674559535,-0.6310659050941467,-1.3381601136973877,1.733572006225586,-0.3586676756488245,0
1777277233.3419015,1.217670202255249,-2.5182987652220667,-0.6308684349060059,-1.3379537922194977,1.733501672744751,-0.35867625871767217,0
1777277233.351893,1.217677354812622,-2.518310686151022,-0.630709171295166,-1.3378484857133408,1.7334654331207275,-0.3586490789996546,0
1777277233.3619065,1.2177011966705322,-2.5182954273619593,-0.6306431293487549,-1.337740496998169,1.7334249019622803,-0.358588997517721,0
1777277233.371941,1.2177202701568604,-2.5183073482909144,-0.6305400133132935,-1.3376580041697999,1.7333130836486816,-0.35848933855165654,0
1777277233.3819222,1.2177011966705322,-2.5182744465269984,-0.6305112838745117,-1.3376722943833848,1.7332534790039062,-0.3583882490741175,0
1777277233.3919518,1.2177131175994873,-2.5182353458800257,-0.6304872632026672,-1.3376497042230149,1.733138084411621,-0.35829192796816045,0
1777277233.401956,1.2177058458328247,-2.5182301006712855,-0.6305148005485535,-1.3376687330058594,1.733069658279419,-0.3581808249102991,0
1777277233.411989,1.217726469039917,-2.51815189937734,-0.6305675506591797,-1.3376806539348145,1.7330167293548584,-0.3581035772906702,0
1777277233.4220283,1.2177733182907104,-2.518118997613424,-0.630603551864624,-1.3376806688359757,1.7329447269439697,-0.35807973543276006,0
1777277233.4320698,1.2177934646606445,-2.5180560551085414,-0.6307220458984375,-1.3377789121917267,1.7329137325286865,-0.35807639757265264,0
1777277233.4420795,1.2178016901016235,-2.518008371392721,-0.630750834941864,-1.3378077757409592,1.7328851222991943,-0.35813981691469365,0
1777277233.45208,1.2178258895874023,-2.517984529534811,-0.6307917237281799,-1.3378639829209824,1.7328417301177979,-0.35817224184145147,0
1777277233.4620616,1.2178270816802979,-2.517943044702047,-0.63080233335495,-1.3379202795079728,1.7328298091888428,-0.35824758211244756,0
1777277233.4720957,1.2178499698638916,-2.5179039440550746,-0.6307903528213501,-1.338031844501831,1.7328250408172607,-0.35827714601625615,0
1777277233.4820902,1.2178499698638916,-2.517900606194967,-0.630709171295166,-1.338076190357544,1.7327821254730225,-0.3582952658282679,0
1777277233.4920967,1.217841386795044,-2.517919202844137,-0.6306360363960266,-1.3381910783103486,1.7327494621276855,-0.35827714601625615,0
1777277233.5021079,1.217836618423462,-2.517951627770895,-0.630512535572052,-1.3382474345019837,1.7326737642288208,-0.35827714601625615,0
1777277233.5121067,1.2178449630737305,-2.517975469628805,-0.6304131150245667,-1.338291735654213,1.7326452732086182,-0.3582714239703577,0
1777277233.52211,1.2178139686584473,-2.518050809899801,-0.6302885413169861,-1.3383445155671616,1.732581615447998,-0.3581932226764124,0
1777277233.5321465,1.2177934646606445,-2.5180984936156214,-0.6301926374435425,-1.338411421780922,1.7325339317321777,-0.3581603209124964,0
1777277233.5421715,1.217797040939331,-2.518158575097555,-0.6301016211509705,-1.3384402853301545,1.7324904203414917,-0.3580816427813929,0
1777277233.5521812,1.2177624702453613,-2.518214841882223,-0.6301243305206299,-1.3384714883616944,1.7324821949005127,-0.3580730597125452,0
1777277233.5622742,1.2177660465240479,-2.518247266808981,-0.6301411986351013,-1.3384918135455628,1.7325137853622437,-0.35807973543276006,0
1777277233.5722435,1.2177815437316895,-2.5182863674559535,-0.6302703619003296,-1.3385502708009263,1.7325209379196167,-0.3580730597125452,0
1777277233.58227,1.2177610397338867,-2.518322607079977,-0.6303315162658691,-1.3385673326304932,1.7324976921081543,-0.35807973543276006,0
1777277233.5923626,1.2177371978759766,-2.5183378658690394,-0.6304597854614258,-1.3386426132968445,1.7325173616409302,-0.35807973543276006,0
1777277233.6023178,1.2177371978759766,-2.518271108666891,-0.6305675506591797,-1.3387146306088944,1.7325303554534912,-0.35806066194643194,0
1777277233.6123633,1.2177011966705322,-2.518195768395895,-0.630694568157196,-1.3388258975795289,1.7325458526611328,-0.3580673376666468,0
1777277233.6224518,1.217653512954712,-2.5180918178954066,-0.6307353973388672,-1.3389268678477784,1.732589840888977,-0.3579610029803675,0
1777277233.632395,1.2175865173339844,-2.5179325542845667,-0.6307952404022217,-1.3390259903720398,1.7326416969299316,-0.3578537146197718,0
1777277233.6424074,1.2175613641738892,-2.5177532635130824,-0.6307629346847534,-1.3391218346408387,1.7326935529708862,-0.35771304765810186,0
1777277233.6524184,1.2175335884094238,-2.517562051812643,-0.63081294298172,-1.3392022413066407,1.7327184677124023,-0.3576286474810999,0
1777277233.6624084,1.217494249343872,-2.5173756084837855,-0.630750834941864,-1.3392585825971146,1.7327721118927002,-0.35752755800356084,0
1777277233.6725028,1.2174510955810547,-2.5172187290587367,-0.6307487487792969,-1.3393289905837555,1.7327768802642822,-0.35743695894350225,0
1777277233.6825664,1.217494249343872,-2.5170799694456996,-0.6307783722877502,-1.3393100065043946,1.7328011989593506,-0.3574007193194788,0
1777277233.6925235,1.2175649404525757,-2.5169793568053187,-0.630781888961792,-1.3392980855754395,1.7328095436096191,-0.35740405717958623,0
1777277233.7026167,1.2175540924072266,-2.5169197521605433,-0.6307833194732666,-1.3392945540002366,1.7328178882598877,-0.3574469725238245,0
1777277233.7125897,1.2176333665847778,-2.5169269047179164,-0.6308156847953796,-1.3392418336919327,1.7328453063964844,-0.3575399557696741,0
1777277233.722574,1.2176856994628906,-2.516904493371481,-0.6308586001396179,-1.3391745698503037,1.7328298091888428,-0.3576625029193323,0
1777277233.7325883,1.2177443504333496,-2.516959329644674,-0.630894660949707,-1.3391267222217103,1.7328524589538574,-0.3577950636493128,0
1777277233.742614,1.2176940441131592,-2.5169440708556117,-0.630894660949707,-1.3390871447375794,1.7328453063964844,-0.35797149339784795,0
1777277233.7526095,1.2176976203918457,-2.5169745884337367,-0.6308671236038208,-1.339118317966797,1.7328453063964844,-0.35818750063051397,0
1777277233.7626183,1.2176427841186523,-2.5169626675047816,-0.6308467388153076,-1.339118317966797,1.7328298091888428,-0.3584392706500452,0
1777277233.7726142,1.2175432443618774,-2.516947408715719,-0.6307079195976257,-1.3391385537436982,1.7328453063964844,-0.3587272802935999,0
1777277233.7826266,1.2174856662750244,-2.516923566857809,-0.6306000351905823,-1.3391781461289902,1.7328225374221802,-0.3590152899371546,0
1777277233.7926416,1.217366099357605,-2.516923566857809,-0.6304681301116943,-1.3392418336919327,1.7328453063964844,-0.3593037764178675,0
