Yuxuan-Liang-git/UR5e_Torque/joint_test/Data/opt_sltn_N5T20_full_trajectory.csv
time,q1,q2,q3,q4,q5,q6,qd1,qd2,qd3,qd4,qd5,qd6,q2d1,q2d2,q2d3,q2d4,q2d5,q2d6
0,0,-1.5707963267949,0,-1.5707963267949,0,0,9.99200722162641e-16,5.32907051820075e-15,0,1.33226762955019e-15,-5.55111512312578e-17,-1.77635683940025e-15,6.93889390390723e-17,-4.9960036108132e-16,4.44089209850063e-15,2.22044604925031e-16,-3.33066907387547e-16,2.22044604925031e-16
0.1,-7.49970699949754e-05,-1.57080200730088,5.01649967752371e-05,-1.57081910106242,-1.47995401578171e-05,0.000135700843786779,-0.00219750278499031,-0.000195306222076752,0.00143464833521278,-0.000736897950538218,-0.000413912100050873,0.00402928860287577,-0.041829524463112,-0.00489602339542483,0.0259206870721758,-0.0168526063465484,-0.00708067194429274,0.0788951807691778
0.2,-0.000557129061152906,-1.5708614362255,0.00034667607157246,-1.57102014456256,-9.45702446228935e-05,0.00105139776886709,-0.00791972937883778,-0.0011706435867862,0.00466972975183921,-0.00376012562497818,-0.00118279789767928,0.0154209387577292,-0.0702880246200183,-0.0155299071428573,0.0364105866625499,-0.0453860006323139,-0.00716639042541023,0.147055336767015
0.3,-0.00173013040539916,-1.57108053285605,0.00099645557713135,-1.57168300313358,-0.000240566931292818,0.00342783491138476,-0.0157749262452804,-0.00347594702003473,0.00828327072131074,-0.010132212039091,-0.0016297524240042,0.0330479773849608,-0.0843563317823503,-0.0313984132489845,0.0338957871181105,-0.0834574978124065,-0.000733721859638603,0.203452979097561
0.4,-0.00373421419273404,-1.57161743401266,0.00197638260366118,-1.57318647092488,-0.000388978980311094,0.00782835195257725,-0.0242920252370038,-0.0076030611121829,0.0110964540720175,-0.0206929417931787,-0.00113273850308199,0.0556936981946097,-0.0834713885117627,-0.051844115465338,0.0208068490722567,-0.128765308920648,0.0115988320071501,0.247325085478732
0.5,-0.00656045690488772,-1.57267592749254,0.00315756626538266,-1.57598162570181,-0.000417102422109572,0.0146912716653294,-0.0319672733435376,-0.0139707437372816,0.0121721260606336,-0.0360466129387238,0.000861965440967439,0.082079234116213,-0.0675445905459629,-0.0760646409405919,-0.00045993782953134,-0.178912288888788,0.0290863295467486,0.278194395660619
0.6,-0.0100499173315733,-1.5744974399438,0.00432927691275492,-1.5805679117862,-0.00015077369504457,0.0243251387711769,-0.0373120797861332,-0.0229108288644722,0.0108094605187468,-0.0565557557473766,0.00482803433502534,0.110892884992908,-0.0369677253865603,-0.103126580040345,-0.0275805361560034,-0.231471119380042,0.0508761554107133,0.295883144998496
0.7,-0.0138975488545906,-1.57735171805106,0.00522215612091692,-1.58746892102049,0.000627122186313223,0.0369069471461518,-0.0389008254621162,-0.0346560035038275,0.00653489617846859,-0.0823413695558628,0.0111493857825028,0.140820424832257,0.00739373283084892,-0.131983805379646,-0.0583395854797817,-0.28404920047425,0.0760295748281675,0.300518879671517
0.8,-0.0176608381145945,-1.58152638590223,0.00553034184367274,-1.59720851925263,0.00216728413055023,0.0524834134029675,-0.0354173716585776,-0.0493296214935368,-0.000910458653478941,-0.113289563104472,0.0201127412962896,0.17057558756412,0.0642198928530975,-0.161499815424464,-0.0906645067469419,-0.334351549639405,0.10354551918808,0.292532204270058
0.9,-0.0207729776979424,-1.58731560155366,0.00493216828708487,-1.61028794596859,0.00474400547768017,0.0709752743769272,-0.0256990288914403,-0.0669379324192465,-0.0115866857505118,-0.149064316687358,0.0319026521631688,0.198929925864537,0.131767881552207,-0.190473600641596,-0.122656569966839,-0.380240074716523,0.132385986111038,0.27264652336076
1,-0.0225602590832091,-1.59500807094809,0.00310913036971527,-1.62716447853129,0.00864481596551325,0.0921845061570394,-0.00877680224248079,-0.0873650483510735,-0.0253738440730906,-0.18912592626887,0.0465991186446085,0.22474125425918,0.207914735278998,-0.217668424273118,-0.152618273010992,-0.419787697636081,0.161502393186797,0.2418600477685
1.1,-0.0222632577718064,-1.60487470640931,-0.000237160540034864,-1.64823220111623,0.0141600181177397,0.115804285119724,0.0160891845664233,-0.110370905583653,-0.0419932860612313,-0.232754544517242,0.0641778636435941,0.246979924975724,0.290210742940076,-0.241842818275076,-0.179076458303974,-0.451325954226961,0.189862197621319,0.201420538326754
1.2,-0.0190612782361764,-1.61715623902729,-0.00537026037534538,-1.67380535334776,0.0215723836686728,0.141431438955294,0.0493800698996222,-0.135592404737032,-0.0610310520334707,-0.279078105137453,0.0845132525863465,0.264752241898731,0.375941965255813,-0.261783020341769,-0.200800686395241,-0.47348487875465,0.21647508494502,0.152793449563487
1.3,-0.0120994347579996,-1.63205110861163,-0.012506599031477,-1.70410465666518,0.0311472713377796,0.168581069820915,0.0912952834039428,-0.162547832223858,-0.0819628485958113,-0.327103808174375,0.107383781883752,0.277320393017334,0.462200413990834,-0.276336022377713,-0.216816488768807,-0.485224194849761,0.240418038970889,0.0976243083449131
1.4,-0.000517667799416643,-1.64970396097681,-0.0218057422423463,-1.73924692970945,0.0431234161022696,0.196702974229112,0.141736905192852,-0.190644581204785,-0.104180084747828,-0.375752257805017,0.132479990757992,0.284118373003602,0.545960170909112,-0.284442365952605,-0.226413234459353,-0.485855071635887,0.260858632180129,0.0376963134675286
1.5,0.0165190637116922,-1.67019507978173,-0.0333632872164564,-1.77923820988627,0.0577046223570363,0.225199436595265,0.200301856035315,-0.219190102874963,-0.127016418713858,-0.42389328265008,0.159414587212387,0.284763472660416,0.624157564042651,-0.285167807340682,-0.229146463564464,-0.475051958917571,0.277075920016405,-0.025115732307333
1.6,0.0397902142776054,-1.69353106884969,-0.0472064153468352,-1.82397049927399,0.075052569441044,0.253443936772642,0.26628222512322,-0.247405931474626,-0.14977425992485,-0.470382433270964,0.187734520167611,0.279063028218319,0.693773402804426,-0.277732984318175,-0.2248346628824,-0.4528542815884,0.288478383103259,-0.0888939494722158
1.7,0.0699895285357275,-1.71963708093956,-0.0632920698331212,-1.87322215186289,0.0952809085511666,0.280800287365691,0.338673838381787,-0.274444541053839,-0.171750674252838,-0.514097143058766,0.216934677836521,0.267016247840318,0.751915206622809,-0.261540249018607,-0.213550581877932,-0.419658044043727,0.294618436659146,-0.151727094325451
1.8,0.107696183322585,-1.74835086064441,-0.0815076715584411,-1.926661818436,0.11845079580998,0.306641704786472,0.416192962536889,-0.299408710979315,-0.192262156497634,-0.55397155724862,0.246472848644016,0.248811062000479,0.795897346017086,-0.236196885300756,-0.195607308170863,-0.376197663320399,0.295203114484228,-0.211760150221688
1.9,0.153347994801189,-1.77941883300196,-0.101674234255853,-1.98385576790426,0.144567968082107,0.330369319231009,0.497300833413309,-0.321373002602936,-0.210667761908283,-0.589029079689771,0.275785546593234,0.224816075295499,0.823317051004171,-0.201534004180684,-0.171539437975385,-0.323518608013373,0.290100633610423,-0.267242491944244
2,0.207217449102088,-1.81249442626014,-0.123551691038948,-2.04427831216893,0.173581427029561,0.351429642992207,0.580235496360009,-0.339406883434537,-0.226390127576348,-0.618411756971923,0.304304278873543,0.195567826343376,0.8321243287785,-0.157620505289412,-0.14207978571756,-0.262941662077507,0.279342652538896,-0.31657335246421
2.1,0.269391254134773,-1.84713876799495,-0.14684619984655,-2.10732497801581,0.205383753925892,0.369330543445514,0.663050257305158,-0.352598979404167,-0.238933963997091,-0.641405712609402,0.331471820376488,0.161753686376563,0.820683968827892,-0.10477160391022,-0.108132175912623,-0.196019852185807,0.263122148217281,-0.358343389128881
2.2,0.339754031252534,-1.8828238395385,-0.17121915624498,-2.17232799634146,0.239813034032242,0.383655305966542,0.743657869505266,-0.360081891954144,-0.247901655844309,-0.657461957679427,0.356758058029937,0.124190842732727,0.787827995901963,-0.0435515493386118,-0.0707409470070468,-0.124489268748165,0.241786951663703,-0.391371245347975
2.3,0.417976670119272,-1.91893811570342,-0.196297609212387,-2.23857361808017,0.276656326020205,0.394074421978404,0.819879427967273,-0.361056986082362,-0.25300567772063,-0.666212035534842,0.379674977584009,0.083801917677212,0.732897155251978,0.0252297018851451,-0.0310578692747718,-0.0502151690951772,0.215829096480477,-0.414734131635452
2.4,0.503509760666783,-1.95479465646059,-0.221685749716983,-2.3053207191234,0.315654570147903,0.400354797004832,0.889496814706627,-0.354818539064679,-0.254077603815926,-0.667478103451526,0.399790386495317,0.0415878631365643,0.655770274980028,0.100525948196708,0.00969276467889024,0.024865127344501,0.185870245469587,-0.427791603196976
2.5,0.595582395044543,-1.98964155599829,-0.246977123659555,-2.37182012451107,0.356508789764087,0.402366141493808,0.950307436794199,-0.340776638071975,-0.251073568371382,-0.661277209456641,0.416739998377308,-0.00140115438359989,0.556880640921058,0.18107028010864,0.0502500790237077,0.0988009608830909,0.152643565289647,-0.430201886252583
2.6,0.693206502851146,-2.02267459396916,-0.271767210472575,-2.43733406603637,0.398887405275409,0.400084381528602,1.00017992821205,-0.318478228560247,-0.244076114832563,-0.647819683987755,0.430237546351918,-0.0440961091299252,0.43721883321603,0.265396479643968,0.089352764564163,0.169687040487756,0.11697251485083,-0.42193029751745
2.7,0.79518674782814,-2.0530518752322,-0.295666006562463,-2.50115518753156,0.442434448919659,0.39359200544099,1.03710944782089,-0.287625744069278,-0.233292453738514,-0.627501729176915,0.44008264352648,-0.0854399067052949,0.298321803004125,0.351865920267817,0.125774618070854,0.235720514048647,0.0797470974166867,-0.403249505850253
2.8,0.900135876879264,-2.0799101895118,-0.318310258873176,-2.56262452844918,0.486778443383791,0.383075343742762,1.05927120039529,-0.248092791460817,-0.219049230861952,-0.600892449118762,0.446166167467261,-0.124417790419366,0.142248304440886,0.438699462619865,0.158358666094292,0.295254821519206,0.0418981969365253,-0.374731596813882
2.9,1.00649527611165,-2.10238277254798,-0.339375007975612,-2.62114794845018,0.531541688193617,0.368818861584751,1.06507083604664,-0.199936422836412,-0.201783986033448,-0.568715718219899,0.448473010477441,-0.160086550616501,-0.0284588667028219,0.524013708527451,0.186049102911685,0.34684884144646,0.00437067407367264,-0.337232114379108
3,1.1125603569343,-2.11961810682938,-0.358584121902915,-2.67621050266937,0.576349685430658,0.351196623005841,1.05319044494109,-0.14340559522136,-0.182033557649099,-0.531827427569742,0.447082107072781,-0.191601752177542,-0.210823049542831,0.60586085640091,0.207920324450126,0.389309969833934,-0.0319040647845609,-0.291866463782709
3.1,1.2165102713568,-2.13079936407221,-0.375719530933985,-2.72738833786806,0.620840431077746,0.330661162455547,1.02262895772736,-0.0789455000824093,-0.160419756380263,-0.491188777437955,0.442163722512719,-0.218242243925645,-0.401495221351791,0.682271298287406,0.223202408572662,0.421729934780089,-0.0660352926307841,-0.2399792602521
3.2,1.31644134260161,-2.13516406426156,-0.390628908994707,-2.77435775216209,0.664673300354603,0.307730069459508,0.972735885423648,-0.00719753506711251,-0.137632692515078,-0.44783639408945,0.433974059732975,-0.239431281599962,-0.596825453974119,0.751298015319675,0.23130247542473,0.443512346630314,-0.0971992473583965,-0.183107394769411
3.3,1.41040349782323,-2.13202350813926,-0.403231588466312,-2.81690114347244,0.707537264785175,0.282970654987103,0.903237482841274,0.071005212034509,-0.114412193282398,-0.402850138183833,0.422847314643699,-0.254753681726409,-0.792942696294829,0.811061766328574,0.23182145769143,0.454391206368941,-0.124663762186013,-0.122937755456196
3.4,1.49643890664671,-2.12078153212312,-0.413522541000717,-2.85490966205951,0.749158195258829,0.256983121404006,0.814254593439448,0.154646994450875,-0.0915277882635674,-0.357319537707718,0.409185379619894,-0.263968524984992,-0.985841040371016,0.859796025774124,0.224565917387212,0.454439838866281,-0.147810562300582,-0.0612606871716245
3.5,1.5726219645447,-2.10095213716076,-0.421574306382752,-2.88838247803807,0.789305028639664,0.230382700412999,0.706311626712489,0.242542874762687,-0.0697577716464508,-0.312309818897984,0.393445460289978,-0.267017042015357,-1.17147045713587,0.895890613116855,0.209554660719427,0.444069976047017,-0.166154603702657,7.96112326999499e-05
3.6,1.63709971547949,-2.07217555609766,-0.427536803396912,-2.91742267304847,0.827794604996773,0.203781253937333,0.580336327220809,0.333356447020318,-0.0498678689358591,-0.268828522829404,0.376125929699432,-0.264025439139502,-1.34582986387493,0.917932966939907,0.187020022976778,0.424020981340382,-0.179359901483157,0.0592364659581337
3.7,1.68813178497952,-2.0342323476612,-0.431635009854716,-2.94222986362379,0.864495017562057,0.177768850618961,0.437650212218591,0.425621526199666,-0.032590042394121,-0.227793682822272,0.357750795012847,-0.255302553064894,-1.50506031318307,0.924746053574902,0.157403818509798,0.395339473977315,-0.187251380894906,0.114412543545328
3.8,1.72412889362099,-1.98705513876613,-0.434164552183326,-2.96308975957643,0.899327357211761,0.152895834949846,0.279949777272528,0.517767420380846,-0.0186019638172912,-0.190004498832466,0.338853193731228,-0.241332358921115,-1.64553607382987,0.915421961100413,0.121348073847538,0.359349872848308,-0.189822383527617,0.163910742427555
3.9,1.74368904193723,-1.93073767992314,-0.435485297046483,-2.9803609513247,0.932265776625546,0.129655896829326,0.109278790940573,0.608147310161964,-0.00850766541122994,-0.156115380466525,0.319958367779244,-0.222761491528371,-1.76395140859048,0.889350314186115,0.0796807819941634,0.317616627903037,-0.187237570238081,0.206182815624539
4,1.74563050073558,-1.8655409302344,-0.436013087160475,-2.99445930301368,0.963335845211777,0.108470626693449,-0.0720077848843989,0.695069178511734,-0.00281984995584494,-0.126614141834803,0.301566583851839,-0.200382072123726,-1.85740094202728,0.846240751584786,0.0333970302043305,0.271899135951486,-0.179831079536025,0.239874428844869
4.1,1.72902080478566,-1.79189594772922,-0.436209809645142,-3.00584040127069,0.992611213231457,0.0896760057851678,-0.261287508208471,0.776828664581489,-0.00194430084135711,-0.101805021361177,0.284136476474582,-0.175110258473532,-1.92345165052292,0.786138833823285,-0.0163640405819487,0.224100541191352,-0.168099921975918,0.26386544111854
4.2,1.69320103146406,-1.71040342637155,-0.436572026854158,-3.01498057044463,1.02020865109,0.0735112334551253,-0.455720875211844,0.851743158745274,-0.00616678188917597,-0.0817970707249254,0.268069285998557,-0.147961052122012,-1.96020469439823,0.709434891019147,-0.0683458913868868,0.176211793451532,-0.152692714710606,0.277304309456646
4.3,1.63780474732645,-1.62182979154039,-0.437618435710611,-3.02235701248638,1.04628157626249,0.0601102347424325,-0.652307348237951,0.918186414821227,-0.0156427573226017,-0.0664983126366518,0.253694447198147,-0.120019999444775,-1.96634554334894,0.61686547653337,-0.121204220569133,0.130252474395894,-0.134393982613015,0.27963566219337
4.4,1.56277112241999,-1.5270998395873,-0.439876451315932,-3.02842766186632,1.07101222455404,0.049496123312295,-0.847945756489198,0.974622930213371,-0.0303901952242098,-0.0556159108803311,0.241256955559845,-0.0924125104819598,-1.94118111627017,0.509507257794771,-0.173538876320232,0.0882100000611732,-0.114104370168367,0.27062025412974
4.5,1.46835184175282,-1.42728598256032,-0.443868233328111,-3.03361136211445,1.09460266319708,0.0415788188034441,-1.03949771938521,1.01964133639455,-0.050285644870149,-0.0486624320446065,0.230906898338972,-0.0662715888893239,-1.88466295842791,0.388763347263075,-0.223927292800035,0.0519788643854222,-0.0928172186715072,0.250346706241132
4.6,1.35511158269178,-1.32359423463747,-0.450096488814218,-3.03826897014823,1.11726487955104,0.0361559356561454,-1.22385266099808,1.05198605112973,-0.0750637011657886,-0.0449681108955526,0.222691486909357,-0.0427048158791252,-1.79739580570402,0.256342250128175,-0.270958663054338,0.0233016011618858,-0.0715920632872066,0.21923463885181
4.7,1.22392197290137,-1.21734715050257,-0.459030392637359,-3.04268597739485,1.13921020989838,0.0329169746075717,-1.39799293603536,1.07058647011026,-0.104319889809592,-0.0436988647967049,0.216549867002235,-0.0227614593286765,-1.68063122948318,0.114229776882919,-0.313268046716084,0.003713110579668,-0.0515256916373766,0.178029024705154
4.8,1.07594909233685,-1.109963996109,-0.471091965788567,-3.04705720313138,1.1606383971557,0.0314507604268974,-1.55905757479398,1.07458301882016,-0.137516926628191,-0.0438796413466154,0.212310915534438,-0.00740058544378375,-1.53624640843196,-0.0353455657141073,-0.349569613880557,-0.00551007823342392,-0.0337214774628354,0.127785811843319
4.9,0.912634731240284,-1.00293849736429,-0.486643243454807,-3.05147406620334,1.18172658352251,0.0312559823471625,-1.70440317681799,1.06334944467109,-0.173994225601398,-0.0444225317504348,0.209694158485243,0.0025389658398316,-1.36670842646663,-0.189953036505545,-0.378688248332576,-0.00339415377354951,-0.0192577576254655,0.0698490900558875
5,0.735671760539289,-0.897814570677943,-0.505974548239564,-3.05591487750283,1.20261855362633,0.0317546092692176,-1.83166054027122,1.03651080352072,-0.212980454250566,-0.0441589444185961,0.208313865492502,0.00636591890588223,-1.17502484111522,-0.34700516444637,-0.399588772928684,0.0106953215349915,-0.00915605673876109,0.00582029322889502
5.1,0.546974108069736,-0.796160489638408,-0.52929416022252,-3.06023851884451,1.22341454523338,0.0323078723452861,-1.93878570504965,0.993956682071162,-0.253608864032617,-0.0418750126114658,0.207686295429454,0.00356045088050116,-0.964681594922931,-0.503807361466976,-0.411402116425015,0.037025553906632,-0.00434997996332142,-0.0624798623063447
5.2,0.348641960359946,-0.69954198308182,-0.556719645018845,-3.06418178607285,1.24416193791558,0.0322344350696238,-2.0241042103598,0.935849296441894,-0.294935058787762,-0.0363493099188386,0.207239985205074,-0.0062060528993455,-0.739569646578497,-0.657610605642158,-0.4134478130274,0.075478346970204,-0.00565559038386231,-0.133055811647225
5.3,0.142922922289332,-0.609494790450622,-0.588271064396423,-3.06736057757829,1.26484711523942,0.0308303074240697,-2.086347519063,0.862626215257387,-0.335956807598462,-0.0263918707603961,0.206328893448704,-0.0230559617942085,-0.503901970675638,-0.805666075810858,-0.405252311703182,0.125542257795013,-0.0137440628007858,-0.203786884961929
5.4,-0.0678300369468579,-0.527497219808456,-0.623866252190453,-3.06927500634799,1.28538877331538,0.0273900076496121,-2.12468073801303,0.77499757048075,-0.375635460907104,-0.0108834621166478,0.204248133624179,-0.0468955528321997,-0.262122808843683,-0.945280562992709,-0.386562669797383,0.186315456059637,-0.0291173611331519,-0.272481153178392
5.5,-0.28120294580714,-0.454943261621002,-0.663318292184826,-3.06931840687734,1.30563291836356,0.0212284342916511,-2.13872096176172,0.673937738380358,-0.412918491473255,0.0111859710957827,0.200251959433515,-0.0774106985932415,-0.0188112446724971,-1.07387145464701,-0.357355312437276,0.256519384934061,-0.0520876228502707,-0.336932051942219
5.6,-0.494766537903526,-0.39311680713918,-0.706335285384284,-3.06679010048658,1.32534975894889,0.0117028834537671,-2.12854578171753,0.560671593738651,-0.446762655545861,0.0406807603374699,0.193573600964214,-0.114068298014297,0.221418684236932,-1.18902008588813,-0.317839653075233,0.334523039778507,-0.0827608523146984,-0.394976376308473
5.7,-0.706122308072525,-0.343167503912383,-0.752522442809848,-3.06091167664298,1.34423265553178,-0.00176536747155853,-2.0946917290541,0.436655559946573,-0.476157255043171,0.0782859083232923,0.183446494594768,-0.156123514615427,0.454019035133447,-1.28852227743937,-0.268456488644079,0.418377400346198,-0.121025427466815,-0.444552189476389
5.8,-0.912947908477857,-0.306088752870638,-0.801386487797991,-3.05084644658012,1.36189924193889,-0.0196704874561793,-2.03814265202797,0.303553793229626,-0.500146978860982,0.124477405241826,0.169126404682646,-0.202632740018049,0.67460783380261,-1.37043493295714,-0.209871202430306,0.50585928099837,-0.166545813152625,-0.483755175774005
5.9,-1.11304088793927,-0.282698312074215,-0.852342299957037,-3.03572163153827,1.37789478139473,-0.0424030931966746,-1.96030826137019,0.163209948251327,-0.517853810680524,0.17949736063533,0.149913901758682,-0.252472054518274,0.879065458303891,-1.43311764732774,-0.142961926130822,0.594523608491723,-0.218761752187308,-0.510891991615789
6,-1.30435981251769,-0.27362192242531,-0.904721682624718,-3.01465276386833,1.39169776508578,-0.0702333565344949,-1.86299330553077,0.0176150722040669,-0.528497511556122,0.243334734393285,0.125176641307033,-0.304360814541488,1.06362529431529,-1.47526838095254,-0.068802926915545,0.68176290480602,-0.276893074844355,-0.524529227948372
6.1,-1.48506186256276,-0.279280311400994,-0.957784088007998,-2.98676970736017,1.402727705158,-0.103296706482658,-1.74835805535151,-0.131127737109831,-0.531414217597336,0.315712317636911,0.0943708798862515,-0.356889862612809,1.22495655326161,-1.49595238063087,0.0113564069562422,0.764872549329632,-0.339950131973351,-0.52353669252404
6.2,-1.65353607965071,-0.299879863453519,-1.01072909025581,-2.95124364550413,1.41035501792661,-0.141582557710472,-1.61887098003405,-0.280841198865558,-0.526072735432101,0.396080462956616,0.0570616716910322,-0.408553732435563,1.3602373242868,-1.4946236726322,0.096116509782286,0.841120225907352,-0.406749719636382,-0.507123848080317
6.3,-1.808431534314,-0.335407171580547,-1.06271035749536,-2.90731434465399,1.41391283827527,-0.184926429028534,-1.47725467823113,-0.429313472625461,-0.512088169824048,0.483617897178332,0.0129412086821288,-0.457786112927963,1.46721615704476,-1.47113861466191,0.183955951831857,0.907817830339488,-0.475936227340256,-0.47486840021259
6.4,-1.9486797999329,-0.385627605301407,-1.11285084022556,-2.85431697452798,1.41271055409514,-0.233005737066496,-1.32642628537565,-0.574338724986702,-0.489232577586892,0.57723977265664,-0.0381551991920741,-0.502997743443862,1.5442607388803,-1.42576116701797,0.27326248900344,0.962394026515029,-0.546007610944778,-0.426736212704397
6.5,-2.07351124696497,-0.450087947619505,-1.16025886614966,-2.79170776203375,1.40604880147005,-0.285339463782814,-1.16943370721539,-0.713757801964572,-0.457442408376249,0.675612929410935,-0.0962359610389978,-0.542615840311269,1.5903925309206,-1.3591597253543,0.362366156087779,1.00246559702971,-0.615345668369116,-0.363091933957003
6.6,-2.18246481182483,-0.5281230693226,-1.20404481112774,-2.71908776645456,1.3932356183794,-0.341291803742013,-1.0093891268567,-0.845498163155784,-0.416822564488957,0.77717815482472,-0.161143258801249,-0.575124104208947,1.60530655573681,-1.27239554394163,0.449573668079849,1.02590573833124,-0.682249984350502,-0.284699941003008
6.7,-2.27539104292138,-0.618866525033196,-1.24333800287139,-2.63622409454642,1.37360341808177,-0.40007980046709,-0.84940129610699,-0.967612245959911,-0.367646986791792,0.880179044794594,-0.232546648842927,-0.5991023301983,1.58937587674306,-1.16690296486406,0.533203368149977,1.03090750144088,-0.744974812537384,-0.192715442020287
6.8,-2.35244837914295,-0.721264873632943,-1.27730350854274,-2.54306792255904,1.3465264140367,-0.460784882959748,-0.69250815001635,-1.07831345885008,-0.310355750601218,0.982696894791348,-0.309940465016858,-0.613264638310837,1.54364066808609,-1.04446185091106,0.611619952621159,1.01604067624317,-0.801768081611823,-0.0886658185905791
6.9,-2.41409276987465,-0.834095447866758,-1.30515845964224,-2.43976875764043,1.31143810703463,-0.522368116079321,-0.541611275573399,-1.17600905124143,-0.24554873197842,1.08269088578268,-0.392645192239687,-0.616495362758392,1.46978213488161,-0.907162793808023,0.683268212677626,0.980300558180356,-0.850911649044524,0.0255774706951594
7,-2.46106089683264,-0.955987225820499,-1.32618757738089,-2.32668445210921,1.26784843276454,-0.583688884280316,-0.399413721688313,-1.25932917286147,-0.173975979739303,1.17804268260696,-0.479812889642537,-0.607881681791005,1.37008189864993,-0.757365830849003,0.746705059205508,0.923147217788442,-0.890761883170144,0.147835869194012
7.1,-2.49434740306381,-1.08544439217154,-1.33975757886363,-2.2043865788688,1.21536016478329,-0.643526639568901,-0.268362558934146,-1.32715151624278,-0.0965249998107165,1.26660443505517,-0.570436649175012,-0.586742137098981,1.24736780321356,-0.597653548208947,0.800629140393132,0.84453411168568,-0.919789632735932,0.275668804806561
7.2,-2.51517666999006,-1.22087212108238,-1.34533016843504,-2.07366088261389,1.15368417397592,-0.700605263673706,-0.150597485884614,-1.37862103024463,-0.0142052247933879,1.34624906802171,-0.663363981297399,-0.552650279995642,1.10494741401609,-0.43077957484727,0.843907420367589,0.744925123247494,-0.936618643622773,0.406425891637684
7.3,-2.52496980620191,-1.36060406660043,-1.34247334886808,-1.93550263695437,1.082653161105,-0.753619523388775,-0.047906636938268,-1.41316429825561,0.0718699987575757,1.41492166947912,-0.757313926321165,-0.505452789447181,0.946530771221078,-0.259613574047082,0.875598159731621,0.62529939633348,-0.940061505238488,0.537305082824666
7.4,-2.52530761895994,-1.50293101146775,-1.33087082298523,-1.79110685940494,1.00223350371347,-0.801263038665103,0.0383094223651739,-1.43049828956195,0.160503521052407,1.47069073594086,-0.850897600262956,-0.445281531866975,0.776144207200166,-0.0870839178633368,0.894969823592239,0.487143619456948,-0.929152253780414,0.665415450251313
7.5,-2.51789042854573,-1.64613010211752,-1.31032929694948,-1.64185346142994,0.912534892021617,-0.842257136863458,0.107064718330177,-1.43063331369678,0.250436170729488,1.51179801603773,-0.942641799912614,-0.372559171565296,0.59803724616246,0.083880718746702,0.901515537468168,0.33243172357519,-0.90317482527333,0.787843141409304
7.6,-2.50449565464963,-1.78849408684955,-1.28078354089622,-1.48928753633746,0.813817469890103,-0.875379934885191,0.15780532633497,-1.41387013267756,0.340369747516101,1.5367057046511,-1.03101521521616,-0.287998090579564,0.416584762794362,0.250409583769417,0.894962814037775,0.163592266759154,-0.861686636617309,0.901718972384945
7.7,-2.48693415130339,-1.928359975974,-1.24229910978071,-1.33509511069221,0.706496245554751,-0.8994949745829,0.190416901745268,-1.38079131206523,0.428990743599572,1.54413978276881,-1.11445672991326,-0.19259253375916,0.236186684107166,0.409746638534804,0.875278381586467,-0.0165359142537187,-0.804536675959314,1.00428606127315
7.8,-2.46700629138905,-2.0641365570389,-1.19507267620378,-1.18107480200112,0.591142591646678,-0.913578736461599,0.205222155482649,-1.33224701588995,0.514994300027915,1.53312837114327,-1.19140523530835,-0.0876040556966342,0.0611675717151249,0.559304690544429,0.842668055674048,-0.204758909807875,-0.73187760222942,1.09296588980245
7.9,-2.44645880295341,-2.19433022478192,-1.13942997645768,-1.02910593376698,0.468482713810346,-0.91674637238104,0.202968379280215,-1.26933556988116,0.597107904162211,1.50303406746971,-1.26033033850888,0.0254594934714358,-0.104321580718155,0.696715707505449,0.797571706366018,-0.397592647065214,-0.644171484974033,1.16542120322675
8,-2.42694333745394,-2.31756862356206,-1.0758214199826,-0.881113755834891,0.339393030711058,-0.908275029535812,0.184805356696026,-1.19337922941766,0.674114344887169,1.45357936498305,-1.31976331656202,0.144871050097051,-0.256397057993569,0.819876238448124,0.740653481775881,-0.591336098208277,-0.542188956672753,1.21961421929184
8.1,-2.40997770523497,-2.43262164886362,-1.00481545978158,-0.73903250075676,0.204892473976021,-0.88762418481798,0.152254218492483,-1.10589569065316,0.74487346358754,1.38486440223815,-1.36832765247805,0.268716945267371,-0.39152947676648,0.926986979076337,0.672787552147097,-0.782151161083012,-0.42700169729372,1.25385871507382
8.2,-2.39691064709755,-2.53841941291112,-0.927089866048334,-0.604767073471304,0.0661317831645181,-0.854452469776799,0.107168009762067,-1.00856597308318,0.808342270200034,1.29737646593071,-1.40476848862573,0.394934360898178,-0.50662217968124,1.01658565136184,0.595039734902673,-0.966147403110843,-0.299968321504098,1.26686469355717
8.3,-2.38889092440932,-2.63406684616547,-0.843421086387522,-0.480154220111162,-0.0756200632888624,-0.808630540455143,0.0516849262599236,-0.903199377389295,0.863593034118177,1.19199085695158,-1.42798034755764,0.521352833498183,-0.599079178252953,1.08757251875826,0.508645447842339,-1.13946971831352,-0.162713889198259,1.25777449695988
8.4,-2.38684140589851,-2.71885467997671,-0.754671912658175,-0.366924050801407,-0.2189920765694,-0.750249631753423,-0.0118246556801869,-0.791696282051157,0.909829008317097,1.06996293003011,-1.43703249975196,0.645738901581387,-0.666861104701772,1.13922802476795,0.414984513052746,-1.29838685225344,-0.01710340631949,1.22618942721729
8.5,-2.3914387096061,-2.79226663428668,-0.66177770591262,-0.26666279995333,-0.362529880846036,-0.679625530718898,-0.0808160914264758,-0.676009584644413,0.94639750055487,0.932911324576387,-1.43119140147784,0.76584290942663,-0.708527921097142,1.17122222008616,0.315553396485234,-1.43937870328629,0.13479017810706,1.1721861512017
8.6,-2.40309882630804,-2.85398271623582,-0.56573145650809,-0.180777695324547,-0.504716412003218,-0.597297805114119,-0.152631948787749,-0.558105618035612,0.972800066531313,0.782792613725415,-1.40993968309938,0.879446919299464,-0.723267451296713,1.18361582806236,0.211935516246335,-1.55922031227178,0.290722844521903,1.096322404084
8.7,-2.42196900922964,-2.90387861898823,-0.467567975751571,-0.110464774045251,-0.643994323640007,-0.504024230429544,-0.224565606797998,-0.439925377352449,0.988699664961187,0.621867805080583,-1.37299123740999,0.984412647953705,-0.710909139605852,1.17685298548935,0.10577028548889,-1.65506050709658,0.448320496153105,0.999631753168565
8.8,-2.44792606743463,-2.94202129318162,-0.368347528080285,-0.0566804304460504,-0.778789691109807,-0.40077046768637,-0.293925480032381,-0.323346880590448,0.993924682092928,0.452661325236176,-1.32030203752559,1.07872833223393,-0.671922791678252,1.15174588143625,-0.00127842718633175,-1.72449327210941,0.605123226132046,0.883607440645742
8.9,-2.48058105039144,-2.96866084427766,-0.269139218601481,-0.0201174078971942,-0.907536571702488,-0.288695153372178,-0.358098369303098,-0.210149454386272,0.988469801677176,0.277913305974563,-1.2520764026981,1.16055344332124,-0.607402409463304,1.10945169670179,-0.107553735896778,-1.76562006371801,0.758631932025459,0.750175580905054
9,-2.51929016245343,-2.98421898594054,-0.171004449817229,-0.00118585649429725,-1.02870195564528,-0.16913066909618,-0.414610468452675,-0.10198068763617,0.972493764172938,0.100526158496758,-1.16876852616283,1.2282602094033,-0.51903558442273,1.0514424163529,-0.211436405092706,-1.77710148865271,0.906356292706437,0.601658240184424
9.1,-2.56317160185637,-2.98927435071096,-0.0749807536750104,2.77522378411277e-08,-1.14081062900615,-0.0435599595260037,-0.461184620526692,-0.000326730459041524,0.946314124512135,-0.0764934310439924,-1.07107917965816,1.28047097149507,-0.409059253339407,0.979468243841618,-0.31137410754226,-1.75819699637249,1.04586308592485,0.440727167343634
9.2,-2.61112788272908,-2.98454502311031,0.0179337089702969,-0.0163706137994879,-1.24246946618753,0.0864101395299599,-0.495792513225939,0.09351346393513,0.910399179547447,-0.25009582978775,-0.959947612289549,1.31609048538433,-0.280202940692734,0.895515483812169,-0.405908677958053,-1.7087915063988,1.17482381143716,0.270349168637464
9.3,-2.66187307372207,-2.97086871552546,0.10679470939694,-0.0498041622878382,-1.33239067663441,0.219078517639103,-0.516700630778423,0.178449449708988,0.865357293015496,-0.417251762017224,-0.836538764622354,1.33433239225792,-0.135620903156672,0.801759878785762,-0.493700824924228,-1.62940818876972,1.29106059450307,0.0937243211062477
9.4,-2.71396427609441,-2.94918105260612,0.190725325829469,-0.0995077517787646,-1.4094135475493,0.352681734135999,-0.522508934074988,0.253615749897167,0.811923896226165,-0.575016178037025,-0.702226019936993,1.33473920899765,0.0211851516363761,0.700516479801576,-0.573551832645896,-1.52120693435596,1.39258937778925,-0.0857816063018927
9.5,-2.76583657002128,-2.92049246450895,0.268927915332014,-0.164400854856771,-1.47252425147631,0.485427615861758,-0.512181419267919,0.318383179351166,0.750946485683173,-0.720591247710717,-0.558569811169714,1.31719533347349,0.186450884392756,0.59418720070899,-0.644421862555761,-1.38596838396632,1.47765946553049,-0.264709011773622
9.6,-2.81584058264577,-2.88586421245088,0.340694500020749,-0.243133063839464,-1.52087332402904,0.615529791012177,-0.485067902672554,0.372364856879503,0.683367973586019,-0.851387042059503,-0.407292491990774,1.28193271707516,0.356239624425337,0.485207248657658,-0.705444550942187,-1.22606372311855,1.54478856094834,-0.439578979772148
9.7,-2.86228177668801,-2.84638408125881,0.405415421795343,-0.334107766015375,-1.55379046202423,0.741242415313744,-0.440916591920104,0.415416854580805,0.610208773004395,-0.965078503849342,-0.250249961689172,1.22952902256471,0.526535974422762,0.375991638561582,-0.755937690314996,-1.0444107850057,1.59279253467733,-0.606968769966871
9.8,-2.90346052543554,-2.80314227277401,0.46258615887268,-0.435511274659575,-1.57079634487769,0.860894337074052,-0.379877224735867,0.447633552746529,0.532548016028169,-1.05965737873146,-0.0894006041852977,1.16089825623532,0.693340476617031,0.268882986714747,-0.795409876905373,-0.844417329507256,1.62080927610149,-0.763586554904861
9.9,-2.9377120293352,-2.75720802121143,0.511812237668471,-0.54534684959642,-1.57161124118204,0.972921955157764,-0.302494782104727,0.469337886453112,0.451504310177924,-1.13347788082688,0.0732278400333601,1.07727403532177,0.852763084777506,0.166101738757317,-0.823563102160072,-0.62991267324404,1.62831610844892,-0.906343695006667
10,-2.96344514131343,-2.70960742728555,0.552812214050137,-0.661472924826059,-1.55616022663107,1.07590004852431,-0.209694006502038,0.48106678238297,0.368216435859146,-1.18529499846547,0.235572805296644,0.980185820588186,1.00111322826148,0.0696999209211591,-0.840291360011387,-0.405069127220569,1.61514038927681,-1.03242288935088
10.1,-2.97917920195266,-2.66130297275798,0.585418737753242,-0.781644759013306,-1.52457490747705,1.16856989713163,-0.102755172935608,0.483552188959583,0.283824375915614,-1.21429450419621,0.395572141274626,0.871428606038813,1.13498434921338,-0.0184805873764496,-0.845675431821007,-0.174314947683481,1.58146306736815,-1.13934062977355
10.2,-2.98357804079797,-2.61317513194231,0.60957775190802,-0.903558639946709,-1.47719161401389,1.24986407087142,0.0167182344283902,0.47769819720529,0.199451047883446,-1.22011391461826,0.55119935325897,0.75302670893221,1.25133093943294,-0.0968443747008002,-0.839974095076115,0.0577592836602997,1.52781512162177,-1.22500251203896
10.3,-2.97548037491167,-2.56600644275054,0.625345915317846,-1.02489770850722,-1.41454609962912,1.31892733449705,0.146839099176991,0.464554831733591,0.116185081048986,-1.20285384591747,0.700498133191303,0.627192440150147,1.34753629571474,-0.16407266035129,-0.823612078200819,0.286498767186997,1.455066963693,-1.28775011833396
10.4,-2.95392592841298,-2.52046833840554,0.632886367619188,-1.14337842290839,-1.33736485120149,1.37513320063234,0.285482495488741,0.445289159176221,0.035064944760844,-1.16307942563395,0.841615488344103,0.496280554232431,1.42146944675713,-0.219146695533507,-0.797165150502913,0.507284879013473,1.364411040343,-1.32639837637295
10.5,-2.9181767047985,-2.47711097346282,0.632462986050647,-1.2567966611642,-1.24655318449963,1.41809575800262,0.430336607846371,0.421154413665591,-0.0429353073342789,-1.10181164517244,0.972832805650236,0.362739477201492,1.47152997520486,-0.261363961509646,-0.761342791833537,0.71563558137339,1.25733802013724,-1.34026251751353
10.6,-2.86773296463787,-2.43635620589742,0.624433306728135,-1.36307245958745,-1.14318036227751,1.44767650584043,0.578957485708847,0.393457874666835,-0.116918459188589,-1.02050876569677,1.09259423521689,0.229060386307879,1.49667975832,-0.290346893834887,-0.716968929827049,0.907303565436995,1.13560708888789,-1.32917399438398
10.7,-2.80234359178385,-2.39849382241833,0.609240302622275,-1.46029240776314,-1.02846203156804,1.46398603561137,0.728826289525486,0.363528250799553,-0.186074552848488,-0.921038116991582,1.19953183549438,0.0977252672067362,1.49646097277132,-0.306044037103487,-0.664961262759944,1.0783698808801,1.00121100586149,-1.29348497201623
10.8,-2.72201066831456,-2.36368101862516,0.587403224561852,-1.54674876549956,-0.903740328975023,1.46738051525179,0.877407635747199,0.332683324038168,-0.249689192758119,-0.805638849310739,1.2924869935383,-0.0288449004166125,1.47100004517984,-0.308723710559802,-0.606309702618945,1.22533089786541,0.85633668536372,-1.23406126939165
10.9,-2.62698821868239,-2.33194507087434,0.55950772038546,-1.6209744338151,-0.770462047430362,1.4584530463836,1.02220763374264,0.302198591977675,-0.307149672795862,-0.676876406967549,1.37052771517088,-0.148340678750826,1.42099757212727,-0.298960437336047,-0.542054475742855,1.34517658929107,0.703322163311255,-1.15226389444073
11,-2.51777522356649,-2.30318906449497,0.526195450795753,-1.68177299865945,-0.630155293970834,1.43802007881687,1.16083022693475,0.273277612253313,-0.35794891827274,-0.537589684524482,1.43296146974406,-0.258612306780293,1.34770457297771,-0.277614554930415,-0.473264407600239,1.43545831102413,0.544610883669821,-1.04991957860929
11.1,-2.39510314032272,-2.27720047493691,0.488153418646581,-1.72824317089218,-0.484405094845144,1.40710317644467,1.29103050337895,0.247024703657883,-0.40168728669514,-0.390831997347539,1.47934337057175,-0.357714365116479,1.2528857678208,-0.24580557801083,-0.401015894421862,1.49434449106355,0.38270429350394,-0.929280970898877
11.2,-2.25991829641516,-2.25366233606963,0.446103221562204,-1.75979706672679,-0.334828421149894,1.36690653183969,1.41076372593786,0.224420594325573,-0.438072319659081,-0.239807143926023,1.50947957273011,-0.44394597969875,1.13877088314796,-0.204880023192357,-0.326373028391212,1.52066290981495,0.2201137666804,-0.792977389811395
11.3,-2.11335964169869,-2.23216667457394,0.400790426280251,-1.77617190668413,-0.183049114899401,1.31879072110235,1.51822894692388,0.20630153019906,-0.466916582650633,-0.087801954227547,1.52342587252751,-0.515885674245105,1.00799527203386,-0.156374525938906,-0.25036929606949,1.51392855663519,0.0593128843559207,-0.643957249242979
11.4,-1.95673245206742,-2.21222984237009,0.352974247438269,-1.77743485506315,-0.0306731918798127,1.2642432736102,1.61190621361928,0.193342268810906,-0.488133768736553,0.0618831963664321,1.52148159519171,-0.572420102753007,0.863531386793478,-0.101975179483689,-0.173991213126267,1.47435637547536,-0.0973089148317483,-0.485423465941333
11.5,-1.7914786682824,-2.19330934131238,0.303417694199354,-1.76398087275829,0.120735016028085,1.20484670136921,1.69058653583964,0.186043286382642,-0.50173327526911,0.206004376408988,1.50417895689787,-0.612766032433886,0.708612854328271,-0.0434741024624061,-0.0981641939212365,1.40285855716689,-0.24749034000842,-0.320763317146262
11.6,-1.61914462762394,-2.17482170670944,0.25287832584069,-1.73652361049135,0.269675439767955,1.1422446880591,1.75339397052609,0.184722422753583,-0.507813489095561,0.34144304328324,1.47226818192747,-0.636485100959308,0.546653072647365,0.0172757058134861,-0.0237408838773407,1.30102638958732,-0.389138993801716,-0.153474343684197
11.7,-1.44134700070254,-2.15616099912893,0.202099732843788,-1.69607952365096,0.41473316650785,1.07810717733663,1.79979937663165,0.189511081210467,-0.506554034847692,0.465272414779137,1.42669874339112,-0.643491036211541,0.381160367430099,0.0784061368716679,0.0485078921252731,1.17109703130837,-0.52036802391507,0.0129120168865497
11.8,-1.25973778010333,-2.13671744767819,0.151803833944815,-1.64394554040941,0.554597281619412,1.01409512261812,1.82962560137131,0.200354991483104,-0.498207252378684,0.574819792479907,1.36859717462304,-0.634049198021117,0.215651817250118,0.138079285158758,0.117899488863892,1.01590592103572,-0.639527944563111,0.174907332565012
11.9,-1.07596918083754,-2.11589579252424,0.102684052736016,-1.58167075815161,0.688077341540117,0.951825665909155,1.84304407108708,0.217019436592094,-0.483089173219291,0.667723450026153,1.29924196634091,-0.608768475634385,0.0535678737273114,0.194531239580053,0.183843107654781,0.83882586603195,-0.745233006486756,0.329141870747769
12,-0.891659304654608,-2.09313288958234,0.0553994105471141,-1.51102277620549,0.81411721422988,0.89283850119136,1.84056297130571,0.239098740424295,-0.461570262137204,0.741982819236064,1.22003612049318,-0.568585747811707,-0.101810131786612,0.246113343443902,0.245840845896995,0.643694159966936,-0.836381622213726,0.472437371094618
12.1,-0.708359391474365,-2.06791416555541,0.0105695462246054,-1.43394939233832,0.931806083266045,0.838564148725011,1.82300740585286,0.266029715295328,-0.434066178828406,0.796000856208491,1.13247797421403,-0.514743280472238,-0.247437589261962,0.291329985305341,0.303486274751736,0.434729357009331,-0.912170491378934,0.601875256185297
12.2,-0.527523432388948,-2.03978854611875,-0.0312293512378545,-1.35253649372098,1.04038647449833,0.790294821096767,1.79149211911636,0.29710867959122,-0.401028796927971,0.828617644501652,1.03813093561435,-0.448759595758856,-0.380577447812593,0.328872078268547,0.356460755099398,0.216439567927365,-0.97210221599121,0.714858748214322
12.3,-0.350480851201772,-2.00838152306416,-0.0694677338342373,-1.26896305767952,1.13925922916266,0.74915850102216,1.74738754400393,0.331511576895209,-0.362937693591633,0.839134489231411,0.938592786734677,-0.372394492603968,-0.498862599408669,0.357645499400453,0.404527759015629,-0.00647566014495088,-1.01598634410444,0.809167504993033
12.4,-0.178412877114283,-1.9734060765094,-0.103665065973878,-1.18545424159251,1.22798541294443,0.716096776253833,1.69228009650567,0.368316661559372,-0.320292293689345,0.827327969921658,0.83546520769676,-0.287609028947097,-0.600348338399881,0.376793891102225,0.447525512091345,-0.229227670434565,-1.04393392893451,0.883003565597925
12.5,-0.0123331321424833,-1.93467122453796,-0.13339144947664,-1.10423358327683,1.3062852152062,0.691846890213366,1.62792777225268,0.406529162923804,-0.27360481913653,0.793453646210695,0.730324160086564,-0.196521386689628,-0.683553682639458,0.385715369289982,0.485358309803173,-0.447042922934382,-1.05634583559013,0.935027600872098
12.6,0.146927154300864,-1.89208803344035,-0.158268588659617,-1.02747535216516,1.3740339550035,0.676928370203875,1.55621220786975,0.445107302421461,-0.223394157134926,0.738239343824052,0.624691737399428,-0.101359629732605,-0.747490626475372,0.384072835477331,0.51798688792005,-0.655266770207976,-1.0538951658899,0.964384691747075
12.7,0.298729011649248,-1.84567298555737,-0.177970191478721,-0.957258087081647,1.43125536922417,0.671634490542917,1.47908844774461,0.482989015372044,-0.170180722239991,0.662868183153629,0.520010046819631,-0.00441243100744027,-0.791680701804595,0.371797747561823,0.54541824201722,-0.849464443394806,-1.03750430003456,0.970719103564189
12.8,0.442630509893464,-1.79554866700538,-0.192221908202512,-0.89552032857868,1.47811241192237,0.676028718129004,1.3985337033122,0.519118722717093,-0.114482347411702,0.568951743882949,0.41761763084269,0.092021115177664,-0.81615854311136,0.349087363426557,0.567695294290493,-1.02551697457683,-1.00831716926619,0.954177781391986
12.9,0.57838642109245,-1.74194180270429,-0.200800910616927,-0.844019503260023,1.51489584152473,0.689946175384993,1.31649640609805,0.552473507245805,-0.0568111997272371,0.458493981006638,0.318728870704767,0.185681464748293,-0.821462477961258,0.316395628501344,0.584886797080714,-1.17970989976584,-0.967667473471852,0.915402553649046
13,0.705942854491217,-1.68517872956499,-0.203535212427539,-0.80429484546152,1.54201091306857,0.713000042821848,1.2348468374002,0.582088073590243,0.00232832158912899,0.33384671516601,0.224416737928006,0.274397260546083,-0.808612487712234,0.27441802939846,0.597077842211999,-1.30881275481257,-0.917043639764317,0.855511292923627
13.1,0.825427085089798,-1.62567845891172,-0.200302825472306,-0.777635149768933,1.5599625251699,0.74459271325143,1.15533056724418,0.607077910639991,0.0624407825983191,0.197657708655306,0.135599177391384,0.356131552902575,-0.779076196228005,0.224070877039067,0.604361314114701,-1.41014759054916,-0.85805138061661,0.776068537539549
13.2,0.937132914981129,-1.56394353481563,-0.191030836980609,-0.765052038257557,1.5693391953889,0.783931404485585,1.07952585453335,0.626660127904185,0.123040117149625,0.0528125033932998,0.0530293172153409,0.429024585497822,-0.73472383941761,0.166465610978078,0.606830583730731,-1.48164498839542,-0.792374751842014,0.679046319140012
13.3,1.04150201674219,-1.50054894470777,-0.175694480716359,-0.767259301583524,1.57079625264495,0.830047839605223,1.00880605130626,0.640171502278319,0.183649371350397,-0.0976286651948297,-0.0227103904671835,0.491432213756694,-0.677773438226103,0.102878828924636,0.60457369064028,-1.52188634745896,-0.721736630800479,0.566776164662454
13.4,1.13910180592979,-1.43612938131146,-0.154316260039479,-0.78465873603842,1.56503864113295,0.881821515794032,0.944307919560696,0.647083346923706,0.243799948860497,-0.25049745723185,-0.0912100859105996,0.541959130055154,-0.610727635665413,0.0347188391668941,0.597669204188668,-1.53013153199389,-0.64785953340519,0.441893440333961
13.5,1.23060047292475,-1.37136518964278,-0.126965164154349,-0.817332752563623,1.55280372682396,0.93800600629263,0.886906612693255,0.64701289756896,0.303030531879735,-0.402586024892091,-0.152230554247678,0.579486195565251,-0.536303858812021,-0.0365103933539669,0.586183892304264,-1.50633130644867,-0.57242766505304,0.307275376091291
13.6,1.31673987098714,-1.3069673588499,-0.093756000817379,-0.86504388188983,1.53484448533105,0.997257676949754,0.837197899245672,0.63973100134787,0.360885862308564,-0.550716081065425,-0.205697580457409,0.603191319610259,-0.457359624572312,-0.109246985786286,0.570172261004418,-1.45112433624908,-0.497051056280697,0.165974247181268
13.7,1.3983070058537,-1.24366193548645,-0.0548488501004414,-0.927241145921013,1.5119134291274,1.05816615050486,0.795488018788724,0.625165987014329,0.416915570490561,-0.691806900466851,-0.25169285523623,0.61256348052302,-0.376814919660858,-0.181909611861274,0.549677960202627,-1.3658188876627,-0.423232570019679,0.0211472924746605
13.8,1.47610490141517,-1.18217424216887,-0.0104486252208247,-1.00307311276568,1.48474760345569,1.11928581915637,0.761791363175133,0.603403690671533,0.470673235148007,-0.822940744436306,-0.290441754936688,0.607409643522518,-0.297573648045132,-0.252935759226814,0.52473698431684,-1.25235971121896,-0.352338485517222,-0.124014986057942
13.9,1.55092362532481,-1.12321328341232,0.0391952914647575,-1.09140730493572,1.45405494458296,1.17916768980473,0.735835976017033,0.574683705652927,0.5217158476948,-0.94142426619773,-0.322298384488407,0.587854497182596,-0.22244615169875,-0.320818836394459,0.495382531290643,-1.11328093197219,-0.285573266448983,-0.266360472578761
14,1.62351224768883,-1.06745670897272,0.0937893857104442,-1.19085549057063,1.42050225230543,1.23639084685864,0.717076664130686,0.539392016577961,0.569603837399168,-1.04484455180392,-0.347728327529562,0.554333096710607,-0.154074772743602,-0.384143238544836,0.461651322868074,-0.951646088456388,-0.223959009982209,-0.402845379173741
14.1,1.69455247564772,-1.01553668466007,0.15299638489229,-1.29980425926803,1.384704981899,1.28959283452531,0.704715321830169,0.498050263653542,0.613901791341183,-1.13111858098228,-0.367289591667732,0.507576665534567,-0.0948643380737637,-0.441616545401188,0.423591134091104,-0.770976753050936,-0.16831995236061,-0.530600877162495
14.2,1.76463465754434,-0.968026991985601,0.216435742801067,-1.41645017013778,1.34721901025409,1.33749829353184,0.697727887158131,0.451301961945901,0.65417997548451,-1.19853504850235,-0.381612267966319,0.448591962767853,-0.0469193136864937,-0.492098108020928,0.381269232636979,-0.575171422890694,-0.119272278010883,-0.646994905665744
14.3,1.83423678382537,-0.92543164197205,0.28368431984596,-1.53883866257508,1.30853447800812,1.37894523534989,0.69489718293719,0.399896069744593,0.690016731233138,-1.24578766675925,-0.391377441835643,0.378634769324775,-0.011989198707256,-0.534623382378995,0.33478139020105,-0.368416586480292,-0.0772193464066487,-0.749687771246591
14.4,1.90370702960669,-0.888175246024977,0.354277348468699,-1.66490584215216,1.26907175542351,1.41290839895073,0.694850749026672,0.34466835867787,0.721001786561752,-1.27199926971371,-0.397295897240987,0.29917817642203,0.00857648693375751,-0.568423483323167,0.284261099835052,-0.155092041853484,-0.0423523172343293,-0.836680310615709
14.5,1.97325028810354,-0.856595339071893,0.42770977562202,-1.79252219664334,1.2291795258854,1.43851920933368,0.696102648986293,0.286521084597345,0.746740483249042,-1.27673625240898,-0.400087147593695,0.211876473902855,0.0138625165006204,-0.592939559824632,0.229888615872643,0.0603273364124212,-0.014656023049461,-0.906353574695856
14.6,2.04291903737481,-0.830936798501012,0.503438072391695,-1.91953726174389,1.18913492852327,1.45508194168006,0.697098137494383,0.226401491428986,0.766858883013199,-1.2600131039357,-0.400459305259153,0.118525529675855,0.00341074364105276,-0.607831728118375,0.171899427416516,0.273371114444906,0.00608018723104806,-0.957499202153047
14.7,2.11260876780888,-0.811348448129756,0.58088259517357,-2.04382424321662,1.14914565185062,1.46208578790205,0.696260006688894,0.165279699527501,0.781009676668959,-1.22228701966265,-0.399090268001447,0.0210206234718622,-0.0227691696347163,-0.612982439839485,0.11059178261021,0.479671817475946,0.0202470279682127,-0.989339878650047
14.8,2.18205807744386,-0.797881880899928,0.659430573341503,-2.16332361215468,1.10935382463624,1.45921262129624,0.692035391712666,0.104126535268192,0.788878782950385,-1.16444280544103,-0.396610655882574,-0.0786872534652421,-0.064201308093644,-0.608494304032814,0.0463328990306211,0.67506020356275,0.0283957795391473,-1.00153951897191
14.9,2.25085341964601,-0.79049247865014,0.738439785240864,-2.27608472242231,1.06984150952811,1.44634035757645,0.682941809003884,0.0438918497153267,0.790192488564582,-1.08776850701818,-0.393588877402661,-0.178635597209742,-0.119957252323978,-0.594682521364812,-0.0204364748525929,0.855655136489771,0.0312153063453914,-0.994203056941971
15,2.31843836598782,-0.789042553554644,0.817242967860601,-2.38030455322795,1.03063757016872,1.42354191427509,0.667611225347767,-0.0145161483707041,0.784724949475328,-0.99392240692627,-0.390518640495977,-0.276894053903983,-0.188681622595876,-0.572062222505595,-0.0891994417856345,1.01794604146165,0.0295062585475873,-0.967865976679724
15.1,2.38412712947069,-0.79330648495657,0.895152986176669,-2.47436275379783,0.991725654424918,1.39107987288629,0.644831010680043,-0.070250055437843,0.772305846378938,-0.884892223807941,-0.387809154066244,-0.37160653742152,-0.268628719604016,-0.541331127159573,-0.15936252580198,1.15886611347391,0.0241531846343342,-0.923473962246981
15.2,2.4471219825001,-0.802977678629471,0.971468766289995,-2.55685225940454,0.953053015498615,1.34939704674488,0.613580711627458,-0.122540489584571,0.752827965777859,-0.762947521069187,-0.385778190884892,-0.461030842383289,-0.35770928382429,-0.503348052546929,-0.23025761586145,1.27585467642444,0.0160953216863226,-0.86235327523852
15.3,2.5065341030495,-0.81767713407339,1.04548197285163,-2.62660485627386,0.914539879476939,1.29910325017732,0.573063693578109,-0.170710976053568,0.72625446273169,-0.630586478998327,-0.384648104820354,-0.543574864880586,-0.453546140403561,-0.459107897549095,-0.301146402834918,1.36690735549268,0.00629685026326529,-0.786172685844392
15.4,2.56140729377803,-0.836963370276482,1.11648438632651,-2.68271119451732,0.876089062527977,1.24095864876262,0.522732833819765,-0.214190184070798,0.692625552907746,-0.490478303740832,-0.384544816503159,-0.617828635727472,-0.553537273562568,-0.409713808904327,-0.371227358473861,1.43061301961313,-0.00428259907407538,-0.69689797722113
15.5,2.61074394472841,-0.860343432245543,1.18377591036538,-2.72453488027155,0.837595543447158,1.17585414466781,0.462309603494477,-0.252521271182403,0.652064380400872,-0.34540263514629,-0.385499703652293,-0.682591481688822,-0.654924688970298,-0.356347296903581,-0.439645230440705,1.46617676786305,-0.0147164202888879,-0.596740211087223
15.6,2.65353255247058,-0.887284680134879,1.24667311439583,-2.75172041750751,0.798955707416987,1.10478931329705,0.391796047814442,-0.285368170191442,0.604781814176117,-0.198187371611768,-0.387454257340753,-0.736893756083978,-0.754867279038588,-0.300237108622168,-0.505502951494024,1.47342856562144,-0.0241377589040838,-0.488099080395947
15.7,2.688776068609,-0.91722705039796,1.30451819249485,-2.76419491319694,0.760075994270281,1.02884845653259,0.311479357778352,-0.312518735742123,0.551079939961388,-0.0516463525303981,-0.390267295316604,-0.780012718272278,-0.850515808121454,-0.242627685990689,-0.56787578558916,1.45281747545816,-0.0317638197205393,-0.373502779581171
15.8,2.71552032941499,-0.949595474229646,1.3566881972908,-2.762163603288,0.720880708679661,0.94917537261514,0.221928917837067,-0.333884750393041,0.491354035804307,0.0914816724869754,-0.393724459836483,-0.811482288331082,-0.939088084569722,-0.18474803367039,-0.625827461049398,1.40539176576874,-0.036917156425439,-0.255545891893272
15.9,2.73288181647687,-0.983812142646832,1.40260438783252,-2.74609939789469,0.681318779803132,0.866947462512046,0.123985907719567,-0.349498871509093,0.426092847927705,0.228591403308348,-0.397549671847519,-0.831096555099438,-1.01794238566569,-0.127781798018814,-0.678427973121513,1.33276550913345,-0.0390434316689269,-0.136826825297788
16,2.74007401569234,-1.01930831962948,1.44174151370146,-2.71672677894492,0.641369293129743,0.78334979714062,0.0187457280265334,-0.359508678385031,0.355877018412148,0.357265370559641,-0.401418167090662,-0.838907068938373,-1.08464724958881,-0.0728393142196831,-0.724772677087222,1.23707259445782,-0.0377252355563863,-0.0198863227674249
16.1,2.73643167817705,-1.05553542437029,1.47363684481949,-2.6750005091548,0.601045656592548,0.699549759107705,-0.0924662966210291,-0.364168051704616,0.281375556823157,0.475323138180566,-0.404970703863618,-0.835214101305669,-1.13704584445259,-0.0209323152363295,-0.764002240448248,1.12090936479805,-0.0326916592521679,0.0928514700500778
16.2,2.72143234077432,-1.09197513023609,1.49789874780081,-2.62207972472478,0.560398305370126,0.616672847115989,-0.208125310789371,-0.363826182900321,0.20334029327074,0.580864261269586,-0.40782850757392,-0.820552197894885,-1.17331326561853,0.0270480845570287,-0.795322980127499,0.987267349659692,-0.023823435683886,0.199133975561194
16.3,2.69471453441637,-1.12814826070763,1.51421460591318,-2.55929808302669,0.51951589402732,0.535780191667383,-0.32654263563918,-0.358914567582891,0.122598299452006,0.67230409143833,-0.409608504337099,-0.795670487156563,-1.19200529531365,0.0703496141592352,-0.818027079479462,0.839457780531683,-0.0111535781959121,0.296929901615011
16.4,2.65609219378074,-1.16362230038896,1.52235788091487,-2.48813071856752,0.478524969566361,0.457848278278266,-0.445905872482818,-0.349932383569553,0.0400423157843219,0.748401700041074,-0.409938394937526,-0.76150832827302,-1.19209737838743,0.108372870700903,-0.831512161253067,0.681029756449667,0.00513643262049207,0.384472557047314
16.5,2.60556487931444,-1.1980173810855,1.52219412146691,-2.41015882390727,0.43758816338077,0.383751310547547,-0.564322372149893,-0.3374306890485,-0.0433807244882152,0.808279383325745,-0.408471131368251,-0.719166989204371,-1.17301281925285,0.140680853794015,-0.835299687256212,0.515684058478828,0.02472474683371,0.460295787128955
16.6,2.5433235302556,-1.23101064773984,1.51368573457954,-2.32703271564911,0.39690098285901,0.314246571774163,-0.679864953955115,-0.321995899270632,-0.126682930712883,0.851433418022496,-0.404898380502165,-0.669878133771939,-1.13463948128751,0.167003843574773,-0.829051663768218,0.347184695302955,0.0471612493431775,0.523261743563908
16.7,2.46975158201378,-1.2623389554822,1.49689535342976,-2.24043426827983,0.356687323360455,0.249963062347974,-0.790618700783267,-0.304233010381425,-0.208850255160276,0.877735946169703,-0.39896259252917,-0.614969964875757,-1.07733456422449,0.187239584151592,-0.812585153807434,0.179270294931704,0.0718832887297877,0.572579914318871
16.8,2.38542140023402,-1.29179989588263,1.47198765684011,-2.15203960019617,0.317193857457563,0.191393602915213,-0.894727629544002,-0.28474903644996,-0.28885861543678,0.887428078997237,-0.390467334667181,-0.555831917341671,-1.00191733988976,0.201448861531531,-0.785884132922333,0.0155674394506327,0.0982345569258448,0.607817061624347
16.9,2.2910861040306,-1.31925119645109,1.43922952218261,-2.06348287687435,0.278683489778667,0.138890502600718,-0.990440039677913,-0.26413711061315,-0.365691052132061,0.88110451638005,-0.379285602115887,-0.493878817598948,-0.90965003433078,0.209846688866872,-0.749108273605439,-0.1404920284709,0.125486566691189,0.628897946372509
17,2.18766696915969,-1.34460858125489,1.39898842417963,-1.97632205652548,0.241428091712162,0.0926647996188588,-1.0761513764115,-0.242961674051763,-0.438355596283156,0.85969017581915,-0.365365876861503,-0.430515428002574,-0.80220734715022,0.212789428802752,-0.702598303773858,-0.285747814930055,0.152862109780236,0.63609694811585
17.1,2.07623671528617,-1.36784222106791,1.35172902624414,-1.89200734486499,0.205700749997823,0.0527889907557872,-1.15044350918582,-0.22174513808943,-0.50590348925578,0.824409508440066,-0.348735769171061,-0.367102271314857,-0.681635389054392,0.210758289774044,-0.646877655734574,-0.417380348912873,0.179560031174183,0.630020916211612
17.2,1.95799908709139,-1.38897193764364,1.2980079480327,-1.8118530494501,0.171767776369876,0.0192030786927009,-1.21211941749424,-0.200956356183355,-0.567447373208543,0.776749344823945,-0.329503144719052,-0.304923586392762,-0.550301088912714,0.204339727523505,-0.582650202088292,-0.532970772141095,0.204780624942209,0.611583803775395
17.3,1.83426523407108,-1.40806135758848,1.23846673196763,-1.73701343238489,0.139880731619378,-0.00827631586071131,-1.26023239392086,-0.181001185346738,-0.622179054272994,0.718416256784826,-0.307854710459913,-0.245158200780881,-0.410833365167642,0.19420336246262,-0.510793962297504,-0.630550433183131,0.227750945837759,0.581973836699296
17.4,1.70642747605357,-1.42521123609844,1.17382307166615,-1.66846305546604,0.110268716610682,-0.0299441047559803,-1.29410901448551,-0.162215352217456,-0.669386433535173,0.651289539215665,-0.284052102749626,-0.188854021486453,-0.266057567073684,0.181078085744184,-0.432350756121042,-0.708638841482015,0.247749337812991,0.542614150164995
17.5,1.57593110862525,-1.44055218890371,1.10486040568879,-1.6069819966793,0.0831311749738415,-0.0461925384448634,-1.31336528590688,-0.144859769362427,-0.708469203291116,0.57737100622434,-0.258425589984757,-0.136906743976996,-0.118924863645805,0.165727070488965,-0.348511875597277,-0.766269326886067,0.26412850595446,0.495117980482001
17.6,1.44424495306578,-1.45423708168662,1.03241601974992,-1.55314619426675,0.0586314376665165,-0.0574951145360725,-1.31791555404405,-0.129118374403083,-0.73895291802234,0.498732856045417,-0.231365567377993,-0.0900432640615221,0.0275616120090573,0.148922428427789,-0.260599943441091,-0.803001955799448,0.276336501151214,0.441239626984545
17.7,1.31283138777187,-1.46643332979094,0.957367838582087,-1.5073230474147,0.0368912187752986,-0.0643890781576779,-1.30797394313147,-0.115098490176297,-0.760501071081483,0.417464888456626,-0.203312081732957,-0.0488101507995431,0.170421971419225,0.131420255727856,-0.170047220244681,-0.818923568644567,0.283935045904341,0.382822494134833
17.8,1.18311661164731,-1.47731535715369,0.880620124087343,-1.46967227408533,0.017986245398693,-0.0674570325588739,-1.28404828677593,-0.102833630441184,-0.772924838878664,0.3356223562365,-0.174742677665746,-0.0135674041933398,0.306774205145747,0.113936794943553,-0.0783707133857598,-0.814635117239224,0.286614703465723,0.321745585711222
17.9,1.05646188420811,-1.48705745226566,0.803088328334823,-1.44015189977122,0.00194317296067892,-0.0673081938430506,-1.2469267041739,-0.0922886046194047,-0.776190193928926,0.25517569891623,-0.146158902274585,0.0155124173995334,0.433906328622037,0.0971264033778523,0.0128554752359387,-0.79122678727373,0.284206478975974,0.259869849664521
18,0.934136462313577,-1.49582724094735,0.725683377480777,-1.41852912904528,-0.0112620982972964,-0.0645598252233794,-1.19765716373887,-0.0833667086490975,-0.77042213569279,0.177963343817451,-0.118071841623835,0.0384397549110607,0.549344187063524,0.0815619626912844,0.102030049764066,-0.750241682888392,0.276689538162775,0.198985763440592
18.1,0.817292910118619,-1.50377997137543,0.649295685140693,-1.40439573762729,-0.0217046286322518,-0.0598193738250785,-1.13752055649779,-0.075918729049202,-0.755905842796381,0.105648667956583,-0.0909870886693684,0.0553984831174152,0.650913176103225,0.0677182918743467,0.18755609108876,-0.693629120370717,0.264194833909066,0.140763505719815
18.2,0.706945398127389,-1.51105377683177,0.574779210406263,-1.39718751897614,-0.0295091297428214,-0.0536678072581056,-1.06799796863174,-0.0697534353612341,-0.733084610788442,0.0396820973455083,-0.0653895577590544,0.0667315449448043,0.73679228829988,0.0559590376831505,0.267873666449958,-0.623688819764782,0.247004540861714,0.0867069829140623
18.3,0.603951530648115,-1.51776604696356,0.502935886026719,-1.39620722857632,-0.0348471469821718,-0.0466446087287986,-0.990732992134979,-0.0646491936761526,-0.702554504808914,-0.018730819356088,-0.0417285652264074,0.0729222299926171,0.805559089785021,0.0465274157042826,0.341492807338131,-0.543007490997941,0.225547310359613,0.0381128695304166
18.4,0.508998150443047,-1.52401099992129,0.434500745961628,-1.40065039316747,-0.0379327801883611,-0.039234839434525,-0.907490040921112,-0.0603663021208423,-0.665055724954408,-0.0686546843333045,-0.0204035887774314,0.0745716509791703,0.856224461205846,0.0395410640823664,0.40702616061174,-0.454389480138955,0.200389469401655,-0.00396431641899597
18.5,0.422591467226905,-1.52985850672121,0.370128078230678,-1.40963329287533,-0.0390170309495197,-0.0318586167713732,-0.820109743517984,-0.056659628845138,-0.621460752200667,-0.109442365998027,-0.00175110056339256,0.0723730659760835,0.888256197016972,0.0349911535980649,0.46322060898838,-0.36078326775113,0.172222395261256,-0.0387402447797971
18.6,0.345051745487774,-1.53535417670747,0.310378918678197,-1.42222238279038,-0.0383809022794259,-0.0248632881049318,-0.730462560086114,-0.0532911247817029,-0.572759412902663,-0.140745634633878,0.0139671594701729,0.0670837710780692,0.901590840549313,0.0327457754060321,0.508987164484878,-0.265205692213724,0.141846398896357,-0.0657212370314222
18.7,0.276512669710662,-1.54052067033195,0.255710184035955,-1.43746439781852,-0.0363274115140593,-0.0185185043486342,-0.64040181887104,-0.0500417874821664,-0.520041068473283,-0.162518186052183,0.0265741413963134,0.0594953457096579,0.896633432012417,0.0325575046183355,0.543428462055287,-0.170665804714783,0.110151542883151,-0.0847166880131401
18.8,0.216925384473053,-1.54536016378811,0.206465718669463,-1.45441638093265,-0.0331727078271711,-0.0130143173431794,-0.551717384099465,-0.0467226685790756,-0.464474202275028,-0.175011111387213,0.0359853924580671,0.0504030697436213,0.874245155119787,0.0340749173624256,0.565863220295393,-0.0800902489030407,0.0780959008360945,-0.0958431819713985
18.9,0.166067086123943,-1.54985785062192,0.162869499174761,-1.47217489015096,-0.0292365112904771,-0.00846234216147046,-0.466091153257464,-0.043184545457549,-0.407283736450971,-0.178761057814051,0.0422146859411792,0.0405753471731298,0.835719177584217,0.0368577242039896,0.575847090942508,0.00374800236090267,0.0466818330804271,-0.0995202556827074
19,0.123553924951085,-1.55398632934801,0.125021204842803,-1.48990367305025,-0.0248321101988696,-0.00489994211044831,-0.385055536937648,-0.0393259168096072,-0.349726465904457,-0.174571503305091,0.0453772043917586,0.0307239649603757,0.782745283493014,0.0403950770080733,0.573189387935632,0.0782958262227185,0.0169309059803955,-0.0964579778272283
19.1,0.0888578648989566,-1.55771069445103,0.0928943209679112,-1.50685914833965,-0.020256166912993,-0.00229731253924825,-0.309956000074344,-0.03509903084823,-0.29306504357875,-0.163487734194678,0.0456901744917858,0.0214759881504842,0.717364183879012,0.0441265122935277,0.557965268579318,0.141279465586697,-0.0101418815464044,-0.0876367247559688
19.2,0.0613270449058778,-1.56099412185772,0.0663368965169511,-1.52241310050051,-0.0157785893856159,-0.000567261698316557,-0.241918641216289,-0.0305137127623119,-0.238540989370225,-0.146766263286919,0.0434709183406767,0.0133480442049776,0.641912658339916,0.0474649144898016,0.530523032137286,0.190755987452131,-0.0335538820969394,-0.0742797329747373
19.3,0.0402090944360576,-1.56380371980802,0.0450750289389603,-1.53607207388945,-0.0116327256415421,0.00042258518913485,-0.181823659037949,-0.0256388229547913,-0.187347223460598,-0.125839554963236,0.0391323543050772,0.00672368210709928,0.558960918546109,0.0498208194364532,0.491486302937842,0.225155508438038,-0.0523799113927205,-0.0578191930165355
19.4,0.0246767781726376,-1.56611640270077,0.0287190978654372,-1.54749304482598,-0.00800613177221798,0.000835496930573498,-0.13028540572624,-0.020601247965653,-0.140600642761068,-0.102277029191474,0.0331760481962664,0.0018344069413132,0.47124378783916,0.0506273337494236,0.441750973544999,0.243313258011998,-0.0657760214814899,-0.0398568132627859
19.5,0.0138552831336911,-1.56792453933978,0.0167727171062992,-1.55649505158205,-0.00503215065023443,0.000849655911395075,-0.0876395589323797,-0.0155823998408726,-0.0993152660042185,-0.0777433960895293,0.0261829805452929,-0.00125510939319828,0.38158745463983,0.0493649206146533,0.382476896288781,0.244490816847376,-0.0730013041134512,-0.0221199216061856
19.6,0.00685041731207148,-1.569241128356,0.00864432195493592,-1.5630665702124,-0.00278251891227477,0.000640924185994152,-0.0539377618524357,-0.0108122750552413,-0.0643764684556842,-0.053955424987795,0.0188022564668804,-0.00265725327674793,0.292833676824594,0.0455852979481676,0.315074425886195,0.228386148792424,-0.0734371439477066,-0.00641428416050083
19.7,0.0027769635089776,-1.57010426243949,0.00366125739029144,-1.56736853598005,-0.00126119431497962,0.000364826875566493,-0.0289498892694781,-0.0065611988715264,-0.0365168112687932,-0.0326382757142232,0.0117380394436799,-0.0026668644259118,0.207763386458279,0.0389337109384656,0.24118602938924,0.195132332986234,-0.066603407528081,0.00542509922931567
19.8,0.00078642605451007,-1.57058065923956,0.00108618356523849,-1.56973302289703,-0.000399564989911561,0.0001382438246047,-0.0121739008837636,-0.00312945315948987,-0.016293943330119,-0.0154825147488614,0.00573503788393298,-0.00176166371337438,0.129021667329127,0.0291688774750498,0.162663289618429,0.145285190407767,-0.0521711337415209,0.0115839150980199
19.9,9.34218142046861e-05,-1.57076806001582,0.000135568977443157,-1.57065770471448,-5.31672167438657e-05,2.13076161816872e-05,-0.00285304693938659,-0.000835053204095271,-0.00407101558564449,-0.00410290536643043,0.00156291226053928,-0.000597708292427335,0.0590460508917158,0.0161799610444685,0.0815397320149147,0.0798002793540284,-0.0299713826693047,0.0103178505351378
20,1.86517468137026e-14,-1.57079632679493,-6.27053964308288e-13,-1.57079632679488,1.33226762955019e-14,2.48689957516035e-14,3.44169137633799e-15,2.66453525910038e-15,-3.5527136788005e-14,-4.21884749357559e-15,-1.99840144432528e-15,8.21565038222616e-15,-2.22044604925031e-15,-1.94289029309402e-15,-1.11022302462516e-14,8.88178419700125e-16,4.44089209850063e-16,1.11022302462516e-15
